; Tomusiowy ploter
; GRBL device profile, absolute coords
; Bounds: X0.10 Y0.10 to X387.30 Y401.28
G00         ; Rapid Travel
G17         ; XY plane
G40         ; Cancel Cutter compensation (?)
G21         ; Set units to mm
G54         ; Work Offset
G90         ; Absolute positioning
M4
M8
;
; Operation:    0
; Type:         Laser Cut
; Paths:        0
; Passes:       2
; Cut rate:     400 mm/min
;


; Pass 0


; Pass 1


;
; Operation:    1
; Type:         Laser Cut
; Paths:        119
; Passes:       2
; Cut rate:     400 mm/min
;


; Pass 0

; Pass 0 Path 0
G0 X321.37 Y0.03
G1 X321.40 Y0.10 S1000.00 F400
G1 X321.40 Y9.30
G1 X324.30 Y9.30
G1 X324.37 Y9.33
G1 X324.40 Y9.40
G1 X324.40 Y18.40
G1 X324.37 Y18.47
G1 X324.30 Y18.50
G1 X321.40 Y18.50
G1 X321.40 Y27.30
G1 X324.30 Y27.30
G1 X324.37 Y27.33
G1 X324.40 Y27.40
G1 X324.40 Y36.40
G1 X324.37 Y36.47
G1 X324.30 Y36.50
G1 X321.40 Y36.50
G1 X321.40 Y45.30
G1 X324.30 Y45.30
G1 X324.37 Y45.33
G1 X324.40 Y45.40
G1 X324.40 Y54.40
G1 X324.37 Y54.47
G1 X324.30 Y54.50
G1 X321.40 Y54.50
G1 X321.40 Y63.80
G1 X321.37 Y63.87
G1 X321.30 Y63.90
G1 X321.37 Y63.93
G1 X321.40 Y64.00
G1 X321.40 Y73.20
G1 X324.30 Y73.20
G1 X324.37 Y73.23
G1 X324.40 Y73.30
G1 X324.40 Y82.30
G1 X324.37 Y82.37
G1 X324.30 Y82.40
G1 X321.40 Y82.40
G1 X321.40 Y91.20
G1 X324.30 Y91.20
G1 X324.37 Y91.23
G1 X324.40 Y91.30
G1 X324.40 Y100.30
G1 X324.37 Y100.37
G1 X324.30 Y100.40
G1 X321.40 Y100.40
G1 X321.40 Y109.20
G1 X324.30 Y109.20
G1 X324.37 Y109.23
G1 X324.40 Y109.30
G1 X324.40 Y118.30
G1 X324.37 Y118.37
G1 X324.30 Y118.40
G1 X321.40 Y118.40
G1 X321.40 Y127.70
G1 X321.37 Y127.77
G1 X321.30 Y127.80
G1 X321.37 Y127.83
G1 X321.40 Y127.90
G1 X321.40 Y137.10
G1 X324.30 Y137.10
G1 X324.37 Y137.13
G1 X324.40 Y137.20
G1 X324.40 Y146.20
G1 X324.37 Y146.27
G1 X324.30 Y146.30
G1 X321.40 Y146.30
G1 X321.40 Y155.10
G1 X324.30 Y155.10
G1 X324.37 Y155.13
G1 X324.40 Y155.20
G1 X324.40 Y164.20
G1 X324.37 Y164.27
G1 X324.30 Y164.30
G1 X321.40 Y164.30
G1 X321.40 Y173.10
G1 X324.30 Y173.10
G1 X324.37 Y173.13
G1 X324.40 Y173.20
G1 X324.40 Y182.20
G1 X324.37 Y182.27
G1 X324.30 Y182.30
G1 X321.40 Y182.30
G1 X321.40 Y191.60
G1 X321.37 Y191.67
G1 X321.30 Y191.70
G1 X321.37 Y191.73
G1 X321.40 Y191.80
G1 X321.40 Y201.00
G1 X324.30 Y201.00
G1 X324.37 Y201.03
G1 X324.40 Y201.10
G1 X324.40 Y210.10
G1 X324.37 Y210.17
G1 X324.30 Y210.20
G1 X321.40 Y210.20
G1 X321.40 Y219.00
G1 X324.30 Y219.00
G1 X324.37 Y219.03
G1 X324.40 Y219.10
G1 X324.40 Y228.10
G1 X324.37 Y228.17
G1 X324.30 Y228.20
G1 X321.40 Y228.20
G1 X321.40 Y237.00
G1 X324.30 Y237.00
G1 X324.37 Y237.03
G1 X324.40 Y237.10
G1 X324.40 Y246.10
G1 X324.37 Y246.17
G1 X324.30 Y246.20
G1 X321.40 Y246.20
G1 X321.40 Y255.50
G1 X321.37 Y255.57
G1 X321.30 Y255.60
G1 X321.37 Y255.63
G1 X321.40 Y255.70
G1 X321.40 Y264.90
G1 X324.30 Y264.90
G1 X324.37 Y264.93
G1 X324.40 Y265.00
G1 X324.40 Y274.00
G1 X324.37 Y274.07
G1 X324.30 Y274.10
G1 X321.40 Y274.10
G1 X321.40 Y282.90
G1 X324.30 Y282.90
G1 X324.37 Y282.93
G1 X324.40 Y283.00
G1 X324.40 Y292.00
G1 X324.37 Y292.07
G1 X324.30 Y292.10
G1 X321.40 Y292.10
G1 X321.40 Y300.90
G1 X324.30 Y300.90
G1 X324.37 Y300.93
G1 X324.40 Y301.00
G1 X324.40 Y310.00
G1 X324.37 Y310.07
G1 X324.30 Y310.10
G1 X321.40 Y310.10
G1 X321.40 Y319.40
G1 X321.37 Y319.47
G1 X321.30 Y319.50
G1 X321.37 Y319.53
G1 X321.40 Y319.60
G1 X321.40 Y328.80
G1 X324.30 Y328.80
G1 X324.37 Y328.83
G1 X324.40 Y328.90
G1 X324.40 Y337.90
G1 X324.37 Y337.97
G1 X324.30 Y338.00
G1 X321.40 Y338.00
G1 X321.40 Y346.80
G1 X324.30 Y346.80
G1 X324.37 Y346.83
G1 X324.40 Y346.90
G1 X324.40 Y355.90
G1 X324.37 Y355.97
G1 X324.30 Y356.00
G1 X321.40 Y356.00
G1 X321.40 Y364.80
G1 X324.30 Y364.80
G1 X324.37 Y364.83
G1 X324.40 Y364.90
G1 X324.40 Y373.90
G1 X324.37 Y373.97
G1 X324.30 Y374.00
G1 X321.40 Y374.00
G1 X321.40 Y383.30
G1 X321.37 Y383.37
G1 X321.30 Y383.40
G1 X165.30 Y383.40
G1 X165.23 Y383.37
G1 X165.20 Y383.30
G1 X165.20 Y374.00
G1 X162.30 Y374.00
G1 X162.23 Y373.97
G1 X162.20 Y373.90
G1 X162.20 Y364.90
G1 X162.23 Y364.83
G1 X162.30 Y364.80
G1 X165.20 Y364.80
G1 X165.20 Y356.00
G1 X162.30 Y356.00
G1 X162.23 Y355.97
G1 X162.20 Y355.90
G1 X162.20 Y346.90
G1 X162.23 Y346.83
G1 X162.30 Y346.80
G1 X165.20 Y346.80
G1 X165.20 Y338.00
G1 X162.30 Y338.00
G1 X162.23 Y337.97
G1 X162.20 Y337.90
G1 X162.20 Y328.90
G1 X162.23 Y328.83
G1 X162.30 Y328.80
G1 X165.20 Y328.80
G1 X165.20 Y319.60
G1 X165.23 Y319.53
G1 X165.30 Y319.50
G1 X165.23 Y319.47
G1 X165.20 Y319.40
G1 X165.20 Y310.10
G1 X162.30 Y310.10
G1 X162.23 Y310.07
G1 X162.20 Y310.00
G1 X162.20 Y301.00
G1 X162.23 Y300.93
G1 X162.30 Y300.90
G1 X165.20 Y300.90
G1 X165.20 Y292.10
G1 X162.30 Y292.10
G1 X162.23 Y292.07
G1 X162.20 Y292.00
G1 X162.20 Y283.00
G1 X162.23 Y282.93
G1 X162.30 Y282.90
G1 X165.20 Y282.90
G1 X165.20 Y274.10
G1 X162.30 Y274.10
G1 X162.23 Y274.07
G1 X162.20 Y274.00
G1 X162.20 Y265.00
G1 X162.23 Y264.93
G1 X162.30 Y264.90
G1 X165.20 Y264.90
G1 X165.20 Y255.70
G1 X165.23 Y255.63
G1 X165.30 Y255.60
G1 X165.23 Y255.57
G1 X165.20 Y255.50
G1 X165.20 Y246.20
G1 X162.30 Y246.20
G1 X162.23 Y246.17
G1 X162.20 Y246.10
G1 X162.20 Y237.10
G1 X162.23 Y237.03
G1 X162.30 Y237.00
G1 X165.20 Y237.00
G1 X165.20 Y228.20
G1 X162.30 Y228.20
G1 X162.23 Y228.17
G1 X162.20 Y228.10
G1 X162.20 Y219.10
G1 X162.23 Y219.03
G1 X162.30 Y219.00
G1 X165.20 Y219.00
G1 X165.20 Y210.20
G1 X162.30 Y210.20
G1 X162.23 Y210.17
G1 X162.20 Y210.10
G1 X162.20 Y201.10
G1 X162.23 Y201.03
G1 X162.30 Y201.00
G1 X165.20 Y201.00
G1 X165.20 Y191.80
G1 X165.23 Y191.73
G1 X165.30 Y191.70
G1 X165.23 Y191.67
G1 X165.20 Y191.60
G1 X165.20 Y182.30
G1 X162.30 Y182.30
G1 X162.23 Y182.27
G1 X162.20 Y182.20
G1 X162.20 Y173.20
G1 X162.23 Y173.13
G1 X162.30 Y173.10
G1 X165.20 Y173.10
G1 X165.20 Y164.30
G1 X162.30 Y164.30
G1 X162.23 Y164.27
G1 X162.20 Y164.20
G1 X162.20 Y155.20
G1 X162.23 Y155.13
G1 X162.30 Y155.10
G1 X165.20 Y155.10
G1 X165.20 Y146.30
G1 X162.30 Y146.30
G1 X162.23 Y146.27
G1 X162.20 Y146.20
G1 X162.20 Y137.20
G1 X162.23 Y137.13
G1 X162.30 Y137.10
G1 X165.20 Y137.10
G1 X165.20 Y127.90
G1 X165.23 Y127.83
G1 X165.30 Y127.80
G1 X165.23 Y127.77
G1 X165.20 Y127.70
G1 X165.20 Y118.40
G1 X162.30 Y118.40
G1 X162.23 Y118.37
G1 X162.20 Y118.30
G1 X162.20 Y109.30
G1 X162.23 Y109.23
G1 X162.30 Y109.20
G1 X165.20 Y109.20
G1 X165.20 Y100.40
G1 X162.30 Y100.40
G1 X162.23 Y100.37
G1 X162.20 Y100.30
G1 X162.20 Y91.30
G1 X162.23 Y91.23
G1 X162.30 Y91.20
G1 X165.20 Y91.20
G1 X165.20 Y82.40
G1 X162.30 Y82.40
G1 X162.23 Y82.37
G1 X162.20 Y82.30
G1 X162.20 Y73.30
G1 X162.23 Y73.23
G1 X162.30 Y73.20
G1 X165.20 Y73.20
G1 X165.20 Y64.00
G1 X165.23 Y63.93
G1 X165.30 Y63.90
G1 X165.23 Y63.87
G1 X165.20 Y63.80
G1 X165.20 Y54.50
G1 X162.30 Y54.50
G1 X162.23 Y54.47
G1 X162.20 Y54.40
G1 X162.20 Y45.40
G1 X162.23 Y45.33
G1 X162.30 Y45.30
G1 X165.20 Y45.30
G1 X165.20 Y36.50
G1 X162.30 Y36.50
G1 X162.23 Y36.47
G1 X162.20 Y36.40
G1 X162.20 Y27.40
G1 X162.23 Y27.33
G1 X162.30 Y27.30
G1 X165.20 Y27.30
G1 X165.20 Y18.50
G1 X162.30 Y18.50
G1 X162.23 Y18.47
G1 X162.20 Y18.40
G1 X162.20 Y9.40
G1 X162.23 Y9.33
G1 X162.30 Y9.30
G1 X165.20 Y9.30
G1 X165.20 Y0.10
G1 X165.23 Y0.03
G1 X165.30 Y0.00
G1 X321.30 Y0.00
G1 X321.37 Y0.03
G1 X321.37 Y0.03

; Pass 0 Path 1
G0 X310.70 Y2.95
G1 X301.90 Y2.95 S1000.00 F400
G1 X301.90 Y6.05
G1 X310.70 Y6.05
G1 X310.70 Y2.95

; Pass 0 Path 2
G0 X292.70 Y2.95
G1 X283.90 Y2.95 S1000.00 F400
G1 X283.90 Y6.05
G1 X292.70 Y6.05
G1 X292.70 Y2.95

; Pass 0 Path 3
G0 X274.70 Y2.95
G1 X265.90 Y2.95 S1000.00 F400
G1 X265.90 Y6.05
G1 X274.70 Y6.05
G1 X274.70 Y2.95

; Pass 0 Path 4
G0 X256.70 Y2.95
G1 X247.90 Y2.95 S1000.00 F400
G1 X247.90 Y6.05
G1 X256.70 Y6.05
G1 X256.70 Y2.95

; Pass 0 Path 5
G0 X238.70 Y2.95
G1 X229.90 Y2.95 S1000.00 F400
G1 X229.90 Y6.05
G1 X238.70 Y6.05
G1 X238.70 Y2.95

; Pass 0 Path 6
G0 X220.70 Y2.95
G1 X211.90 Y2.95 S1000.00 F400
G1 X211.90 Y6.05
G1 X220.70 Y6.05
G1 X220.70 Y2.95

; Pass 0 Path 7
G0 X202.70 Y2.95
G1 X193.90 Y2.95 S1000.00 F400
G1 X193.90 Y6.05
G1 X202.70 Y6.05
G1 X202.70 Y2.95

; Pass 0 Path 8
G0 X184.70 Y2.95
G1 X175.90 Y2.95 S1000.00 F400
G1 X175.90 Y6.05
G1 X184.70 Y6.05
G1 X184.70 Y2.95

; Pass 0 Path 9
G0 X162.20 Y9.40
G1 X162.20 Y18.40 S1000.00 F400
G1 X162.17 Y18.47
G1 X162.10 Y18.50
G1 X159.20 Y18.50
G1 X159.20 Y27.30
G1 X162.10 Y27.30
G1 X162.17 Y27.33
G1 X162.20 Y27.40
G1 X162.20 Y36.40
G1 X162.17 Y36.47
G1 X162.10 Y36.50
G1 X159.20 Y36.50
G1 X159.20 Y45.30
G1 X162.10 Y45.30
G1 X162.17 Y45.33
G1 X162.20 Y45.40
G1 X162.20 Y54.40
G1 X162.17 Y54.47
G1 X162.10 Y54.50
G1 X159.20 Y54.50
G1 X159.20 Y63.80
G1 X159.17 Y63.87
G1 X159.10 Y63.90
G1 X159.17 Y63.93
G1 X159.20 Y64.00
G1 X159.20 Y73.20
G1 X162.10 Y73.20
G1 X162.17 Y73.23
G1 X162.20 Y73.30
G1 X162.20 Y82.30
G1 X162.17 Y82.37
G1 X162.10 Y82.40
G1 X159.20 Y82.40
G1 X159.20 Y91.20
G1 X162.10 Y91.20
G1 X162.17 Y91.23
G1 X162.20 Y91.30
G1 X162.20 Y100.30
G1 X162.17 Y100.37
G1 X162.10 Y100.40
G1 X159.20 Y100.40
G1 X159.20 Y109.20
G1 X162.10 Y109.20
G1 X162.17 Y109.23
G1 X162.20 Y109.30
G1 X162.20 Y118.30
G1 X162.17 Y118.37
G1 X162.10 Y118.40
G1 X159.20 Y118.40
G1 X159.20 Y127.70
G1 X159.17 Y127.77
G1 X159.10 Y127.80
G1 X159.17 Y127.83
G1 X159.20 Y127.90
G1 X159.20 Y137.10
G1 X162.10 Y137.10
G1 X162.17 Y137.13
G1 X162.20 Y137.20
G1 X162.20 Y146.20
G1 X162.17 Y146.27
G1 X162.10 Y146.30
G1 X159.20 Y146.30
G1 X159.20 Y155.10
G1 X162.10 Y155.10
G1 X162.17 Y155.13
G1 X162.20 Y155.20
G1 X162.20 Y164.20
G1 X162.17 Y164.27
G1 X162.10 Y164.30
G1 X159.20 Y164.30
G1 X159.20 Y173.10
G1 X162.10 Y173.10
G1 X162.17 Y173.13
G1 X162.20 Y173.20
G1 X162.20 Y182.20
G1 X162.17 Y182.27
G1 X162.10 Y182.30
G1 X159.20 Y182.30
G1 X159.20 Y191.60
G1 X159.17 Y191.67
G1 X159.10 Y191.70
G1 X159.17 Y191.73
G1 X159.20 Y191.80
G1 X159.20 Y201.00
G1 X162.10 Y201.00
G1 X162.17 Y201.03
G1 X162.20 Y201.10
G1 X162.20 Y210.10
G1 X162.17 Y210.17
G1 X162.10 Y210.20
G1 X159.20 Y210.20
G1 X159.20 Y219.00
G1 X162.10 Y219.00
G1 X162.17 Y219.03
G1 X162.20 Y219.10
G1 X162.20 Y228.10
G1 X162.17 Y228.17
G1 X162.10 Y228.20
G1 X159.20 Y228.20
G1 X159.20 Y237.00
G1 X162.10 Y237.00
G1 X162.17 Y237.03
G1 X162.20 Y237.10
G1 X162.20 Y246.10
G1 X162.17 Y246.17
G1 X162.10 Y246.20
G1 X159.20 Y246.20
G1 X159.20 Y255.50
G1 X159.17 Y255.57
G1 X159.10 Y255.60
G1 X159.17 Y255.63
G1 X159.20 Y255.70
G1 X159.20 Y264.90
G1 X162.10 Y264.90
G1 X162.17 Y264.93
G1 X162.20 Y265.00
G1 X162.20 Y274.00
G1 X162.17 Y274.07
G1 X162.10 Y274.10
G1 X159.20 Y274.10
G1 X159.20 Y282.90
G1 X162.10 Y282.90
G1 X162.17 Y282.93
G1 X162.20 Y283.00
G1 X162.20 Y292.00
G1 X162.17 Y292.07
G1 X162.10 Y292.10
G1 X159.20 Y292.10
G1 X159.20 Y300.90
G1 X162.10 Y300.90
G1 X162.17 Y300.93
G1 X162.20 Y301.00
G1 X162.20 Y310.00
G1 X162.17 Y310.07
G1 X162.10 Y310.10
G1 X159.20 Y310.10
G1 X159.20 Y319.40
G1 X159.17 Y319.47
G1 X159.10 Y319.50
G1 X159.17 Y319.53
G1 X159.20 Y319.60
G1 X159.20 Y328.80
G1 X162.10 Y328.80
G1 X162.17 Y328.83
G1 X162.20 Y328.90
G1 X162.20 Y337.90
G1 X162.17 Y337.97
G1 X162.10 Y338.00
G1 X159.20 Y338.00
G1 X159.20 Y346.80
G1 X162.10 Y346.80
G1 X162.17 Y346.83
G1 X162.20 Y346.90
G1 X162.20 Y355.90
G1 X162.17 Y355.97
G1 X162.10 Y356.00
G1 X159.20 Y356.00
G1 X159.20 Y364.80
G1 X162.10 Y364.80
G1 X162.17 Y364.83
G1 X162.20 Y364.90
G1 X162.20 Y373.90
G1 X162.17 Y373.97
G1 X162.10 Y374.00
G1 X159.20 Y374.00
G1 X159.20 Y383.30
G1 X159.17 Y383.37
G1 X159.10 Y383.40
G1 X91.10 Y383.40
G1 X91.10 Y375.40
G1 X71.10 Y375.40
G1 X71.10 Y383.40
G1 X3.10 Y383.40
G1 X3.03 Y383.37
G1 X3.00 Y383.30
G1 X3.00 Y374.00
G1 X0.10 Y374.00
G1 X0.03 Y373.97
G1 X0.00 Y373.90
G1 X0.00 Y364.90
G1 X0.03 Y364.83
G1 X0.10 Y364.80
G1 X3.00 Y364.80
G1 X3.00 Y356.00
G1 X0.10 Y356.00
G1 X0.03 Y355.97
G1 X0.00 Y355.90
G1 X0.00 Y346.90
G1 X0.03 Y346.83
G1 X0.10 Y346.80
G1 X3.00 Y346.80
G1 X3.00 Y338.00
G1 X0.10 Y338.00
G1 X0.03 Y337.97
G1 X0.00 Y337.90
G1 X0.00 Y328.90
G1 X0.03 Y328.83
G1 X0.10 Y328.80
G1 X3.00 Y328.80
G1 X3.00 Y319.60
G1 X3.03 Y319.53
G1 X3.10 Y319.50
G1 X3.03 Y319.47
G1 X3.00 Y319.40
G1 X3.00 Y310.10
G1 X0.10 Y310.10
G1 X0.03 Y310.07
G1 X0.00 Y310.00
G1 X0.00 Y301.00
G1 X0.03 Y300.93
G1 X0.10 Y300.90
G1 X3.00 Y300.90
G1 X3.00 Y292.10
G1 X0.10 Y292.10
G1 X0.03 Y292.07
G1 X0.00 Y292.00
G1 X0.00 Y283.00
G1 X0.03 Y282.93
G1 X0.10 Y282.90
G1 X3.00 Y282.90
G1 X3.00 Y274.10
G1 X0.10 Y274.10
G1 X0.03 Y274.07
G1 X0.00 Y274.00
G1 X0.00 Y265.00
G1 X0.03 Y264.93
G1 X0.10 Y264.90
G1 X3.00 Y264.90
G1 X3.00 Y255.70
G1 X3.03 Y255.63
G1 X3.10 Y255.60
G1 X3.03 Y255.57
G1 X3.00 Y255.50
G1 X3.00 Y246.20
G1 X0.10 Y246.20
G1 X0.03 Y246.17
G1 X0.00 Y246.10
G1 X0.00 Y237.10
G1 X0.03 Y237.03
G1 X0.10 Y237.00
G1 X3.00 Y237.00
G1 X3.00 Y228.20
G1 X0.10 Y228.20
G1 X0.03 Y228.17
G1 X0.00 Y228.10
G1 X0.00 Y219.10
G1 X0.03 Y219.03
G1 X0.10 Y219.00
G1 X3.00 Y219.00
G1 X3.00 Y210.20
G1 X0.10 Y210.20
G1 X0.03 Y210.17
G1 X0.00 Y210.10
G1 X0.00 Y201.10
G1 X0.03 Y201.03
G1 X0.10 Y201.00
G1 X3.00 Y201.00
G1 X3.00 Y191.80
G1 X3.03 Y191.73
G1 X3.10 Y191.70
G1 X3.03 Y191.67
G1 X3.00 Y191.60
G1 X3.00 Y182.30
G1 X0.10 Y182.30
G1 X0.03 Y182.27
G1 X0.00 Y182.20
G1 X0.00 Y173.20
G1 X0.03 Y173.13
G1 X0.10 Y173.10
G1 X3.00 Y173.10
G1 X3.00 Y164.30
G1 X0.10 Y164.30
G1 X0.03 Y164.27
G1 X0.00 Y164.20
G1 X0.00 Y155.20
G1 X0.03 Y155.13
G1 X0.10 Y155.10
G1 X3.00 Y155.10
G1 X3.00 Y146.30
G1 X0.10 Y146.30
G1 X0.03 Y146.27
G1 X0.00 Y146.20
G1 X0.00 Y137.20
G1 X0.03 Y137.13
G1 X0.10 Y137.10
G1 X3.00 Y137.10
G1 X3.00 Y127.90
G1 X3.03 Y127.83
G1 X3.10 Y127.80
G1 X3.03 Y127.77
G1 X3.00 Y127.70
G1 X3.00 Y118.40
G1 X0.10 Y118.40
G1 X0.03 Y118.37
G1 X0.00 Y118.30
G1 X0.00 Y109.30
G1 X0.03 Y109.23
G1 X0.10 Y109.20
G1 X3.00 Y109.20
G1 X3.00 Y100.40
G1 X0.10 Y100.40
G1 X0.03 Y100.37
G1 X0.00 Y100.30
G1 X0.00 Y91.30
G1 X0.03 Y91.23
G1 X0.10 Y91.20
G1 X3.00 Y91.20
G1 X3.00 Y82.40
G1 X0.10 Y82.40
G1 X0.03 Y82.37
G1 X0.00 Y82.30
G1 X0.00 Y73.30
G1 X0.03 Y73.23
G1 X0.10 Y73.20
G1 X3.00 Y73.20
G1 X3.00 Y64.00
G1 X3.03 Y63.93
G1 X3.10 Y63.90
G1 X3.03 Y63.87
G1 X3.00 Y63.80
G1 X3.00 Y54.50
G1 X0.10 Y54.50
G1 X0.03 Y54.47
G1 X0.00 Y54.40
G1 X0.00 Y45.40
G1 X0.03 Y45.33
G1 X0.10 Y45.30
G1 X3.00 Y45.30
G1 X3.00 Y36.50
G1 X0.10 Y36.50
G1 X0.03 Y36.47
G1 X0.00 Y36.40
G1 X0.00 Y27.40
G1 X0.03 Y27.33
G1 X0.10 Y27.30
G1 X3.00 Y27.30
G1 X3.00 Y18.50
G1 X0.10 Y18.50
G1 X0.03 Y18.47
G1 X0.00 Y18.40
G1 X0.00 Y9.40
G1 X0.03 Y9.33
G1 X0.10 Y9.30
G1 X3.00 Y9.30
G1 X3.00 Y0.10
G1 X3.03 Y0.03
G1 X3.10 Y0.00
G1 X159.10 Y0.00
G1 X159.17 Y0.03
G1 X159.20 Y0.10
G1 X159.20 Y9.30
G1 X162.10 Y9.30
G1 X162.17 Y9.33
G1 X162.20 Y9.40

; Pass 0 Path 10
G0 X148.50 Y6.05
G1 X148.50 Y2.95 S1000.00 F400
G1 X139.70 Y2.95
G1 X139.70 Y6.05
G1 X148.50 Y6.05

; Pass 0 Path 11
G0 X130.50 Y6.05
G1 X130.50 Y2.95 S1000.00 F400
G1 X121.70 Y2.95
G1 X121.70 Y6.05
G1 X130.50 Y6.05

; Pass 0 Path 12
G0 X112.50 Y6.05
G1 X112.50 Y2.95 S1000.00 F400
G1 X103.70 Y2.95
G1 X103.70 Y6.05
G1 X112.50 Y6.05

; Pass 0 Path 13
G0 X94.50 Y6.05
G1 X94.50 Y2.95 S1000.00 F400
G1 X85.70 Y2.95
G1 X85.70 Y6.05
G1 X94.50 Y6.05

; Pass 0 Path 14
G0 X76.50 Y6.05
G1 X76.50 Y2.95 S1000.00 F400
G1 X67.70 Y2.95
G1 X67.70 Y6.05
G1 X76.50 Y6.05

; Pass 0 Path 15
G0 X58.50 Y6.05
G1 X58.50 Y2.95 S1000.00 F400
G1 X49.70 Y2.95
G1 X49.70 Y6.05
G1 X58.50 Y6.05

; Pass 0 Path 16
G0 X40.50 Y6.05
G1 X40.50 Y2.95 S1000.00 F400
G1 X31.70 Y2.95
G1 X31.70 Y6.05
G1 X40.50 Y6.05

; Pass 0 Path 17
G0 X22.50 Y6.05
G1 X22.50 Y2.95 S1000.00 F400
G1 X13.70 Y2.95
G1 X13.70 Y6.05
G1 X22.50 Y6.05

; Pass 0 Path 18
G0 X22.50 Y66.85
G1 X13.70 Y66.85 S1000.00 F400
G1 X13.70 Y69.95
G1 X22.50 Y69.95
G1 X22.50 Y66.85

; Pass 0 Path 19
G0 X31.70 Y66.85
G1 X31.70 Y69.95 S1000.00 F400
G1 X40.50 Y69.95
G1 X40.50 Y66.85
G1 X31.70 Y66.85
G1 X31.70 Y66.85

; Pass 0 Path 20
G0 X49.70 Y66.85
G1 X49.70 Y69.95 S1000.00 F400
G1 X58.50 Y69.95
G1 X58.50 Y66.85
G1 X49.70 Y66.85
G1 X49.70 Y66.85

; Pass 0 Path 21
G0 X67.70 Y66.85
G1 X67.70 Y69.95 S1000.00 F400
G1 X76.50 Y69.95
G1 X76.50 Y66.85
G1 X67.70 Y66.85
G1 X67.70 Y66.85

; Pass 0 Path 22
G0 X71.10 Y63.90
G1 X71.10 Y63.90 S1000.00 F400
G1 X91.10 Y63.90
G1 X91.10 Y55.90
G1 X71.10 Y55.90
G1 X71.10 Y63.90
G1 X3.10 Y63.90
G1 X3.10 Y63.90
G1 X3.10 Y63.90
G1 X71.10 Y63.90

; Pass 0 Path 23
G0 X71.10 Y55.90
G1 X91.10 Y55.90 S1000.00 F400
G1 X91.10 Y55.82
G1 X91.10 Y55.73
G1 X91.10 Y55.65
G1 X91.09 Y55.57
G1 X91.09 Y55.48
G1 X91.09 Y55.40
G1 X91.08 Y55.32
G1 X91.08 Y55.23
G1 X91.07 Y55.15
G1 X91.07 Y55.07
G1 X91.06 Y54.99
G1 X91.05 Y54.90
G1 X91.04 Y54.82
G1 X91.03 Y54.74
G1 X91.02 Y54.66
G1 X91.01 Y54.58
G1 X91.00 Y54.49
G1 X90.99 Y54.41
G1 X90.98 Y54.33
G1 X90.96 Y54.25
G1 X90.95 Y54.17
G1 X90.93 Y54.09
G1 X90.92 Y54.01
G1 X90.90 Y53.93
G1 X90.89 Y53.85
G1 X90.87 Y53.77
G1 X90.85 Y53.69
G1 X90.83 Y53.61
G1 X90.81 Y53.53
G1 X90.79 Y53.45
G1 X90.77 Y53.37
G1 X90.75 Y53.29
G1 X90.73 Y53.21
G1 X90.71 Y53.13
G1 X90.69 Y53.06
G1 X90.66 Y52.98
G1 X90.64 Y52.90
G1 X90.61 Y52.82
G1 X90.59 Y52.75
G1 X90.56 Y52.67
G1 X90.54 Y52.59
G1 X90.51 Y52.51
G1 X90.48 Y52.44
G1 X90.45 Y52.36
G1 X90.42 Y52.29
G1 X90.39 Y52.21
G1 X90.36 Y52.14
G1 X90.33 Y52.06
G1 X90.30 Y51.99
G1 X90.27 Y51.91
G1 X90.24 Y51.84
G1 X90.20 Y51.76
G1 X90.17 Y51.69
G1 X90.14 Y51.62
G1 X90.10 Y51.54
G1 X90.07 Y51.47
G1 X90.03 Y51.40
G1 X89.99 Y51.33
G1 X89.96 Y51.25
G1 X89.92 Y51.18
G1 X89.88 Y51.11
G1 X89.84 Y51.04
G1 X89.80 Y50.97
G1 X89.76 Y50.90
G1 X89.72 Y50.83
G1 X89.68 Y50.76
G1 X89.64 Y50.69
G1 X89.59 Y50.62
G1 X89.55 Y50.55
G1 X89.51 Y50.49
G1 X89.46 Y50.42
G1 X89.42 Y50.35
G1 X89.37 Y50.28
G1 X89.33 Y50.22
G1 X89.28 Y50.15
G1 X89.23 Y50.08
G1 X89.19 Y50.02
G1 X89.14 Y49.95
G1 X89.09 Y49.89
G1 X89.04 Y49.82
G1 X88.99 Y49.76
G1 X88.94 Y49.70
G1 X88.89 Y49.63
G1 X88.84 Y49.57
G1 X88.79 Y49.51
G1 X88.74 Y49.44
G1 X88.68 Y49.38
G1 X88.63 Y49.32
G1 X88.58 Y49.26
G1 X88.52 Y49.20
G1 X88.47 Y49.14
G1 X88.41 Y49.08
G1 X88.36 Y49.02
G1 X88.30 Y48.96
G1 X88.24 Y48.90
G1 X88.19 Y48.84
G1 X88.13 Y48.79
G1 X88.07 Y48.73
G1 X88.01 Y48.67
G1 X87.95 Y48.62
G1 X87.89 Y48.56
G1 X87.83 Y48.51
G1 X87.77 Y48.45
G1 X87.71 Y48.40
G1 X87.65 Y48.34
G1 X87.59 Y48.29
G1 X87.52 Y48.24
G1 X87.46 Y48.18
G1 X87.40 Y48.13
G1 X87.33 Y48.08
G1 X87.27 Y48.03
G1 X87.20 Y47.98
G1 X87.14 Y47.93
G1 X87.07 Y47.88
G1 X87.00 Y47.83
G1 X86.94 Y47.78
G1 X86.87 Y47.73
G1 X86.80 Y47.69
G1 X86.73 Y47.64
G1 X86.67 Y47.59
G1 X86.60 Y47.55
G1 X86.53 Y47.50
G1 X86.46 Y47.46
G1 X86.39 Y47.41
G1 X86.32 Y47.37
G1 X86.24 Y47.32
G1 X86.17 Y47.28
G1 X86.10 Y47.24
G1 X86.03 Y47.20
G1 X85.95 Y47.16
G1 X85.88 Y47.12
G1 X85.81 Y47.08
G1 X85.73 Y47.04
G1 X85.66 Y47.00
G1 X85.59 Y46.96
G1 X85.51 Y46.93
G1 X85.44 Y46.89
G1 X85.36 Y46.85
G1 X85.29 Y46.82
G1 X85.21 Y46.78
G1 X85.14 Y46.75
G1 X85.06 Y46.72
G1 X84.98 Y46.69
G1 X84.91 Y46.65
G1 X84.83 Y46.62
G1 X84.76 Y46.59
G1 X84.68 Y46.56
G1 X84.60 Y46.53
G1 X84.53 Y46.51
G1 X84.45 Y46.48
G1 X84.37 Y46.45
G1 X84.29 Y46.42
G1 X84.22 Y46.40
G1 X84.14 Y46.37
G1 X84.06 Y46.35
G1 X83.98 Y46.32
G1 X83.90 Y46.30
G1 X83.82 Y46.28
G1 X83.75 Y46.26
G1 X83.67 Y46.24
G1 X83.59 Y46.21
G1 X83.51 Y46.19
G1 X83.43 Y46.18
G1 X83.35 Y46.16
G1 X83.27 Y46.14
G1 X83.19 Y46.12
G1 X83.11 Y46.10
G1 X83.03 Y46.09
G1 X82.95 Y46.07
G1 X82.87 Y46.06
G1 X82.79 Y46.04
G1 X82.71 Y46.03
G1 X82.63 Y46.02
G1 X82.55 Y46.01
G1 X82.47 Y45.99
G1 X82.39 Y45.98
G1 X82.31 Y45.97
G1 X82.23 Y45.96
G1 X82.15 Y45.96
G1 X82.07 Y45.95
G1 X81.99 Y45.94
G1 X81.91 Y45.93
G1 X81.83 Y45.93
G1 X81.75 Y45.92
G1 X81.67 Y45.92
G1 X81.59 Y45.91
G1 X81.50 Y45.91
G1 X81.42 Y45.91
G1 X81.34 Y45.90
G1 X81.26 Y45.90
G1 X81.18 Y45.90
G1 X81.10 Y45.90
G1 X81.02 Y45.90
G1 X80.94 Y45.90
G1 X80.86 Y45.90
G1 X80.78 Y45.91
G1 X80.70 Y45.91
G1 X80.61 Y45.91
G1 X80.53 Y45.92
G1 X80.45 Y45.92
G1 X80.37 Y45.93
G1 X80.29 Y45.93
G1 X80.21 Y45.94
G1 X80.13 Y45.95
G1 X80.05 Y45.96
G1 X79.97 Y45.96
G1 X79.89 Y45.97
G1 X79.81 Y45.98
G1 X79.73 Y45.99
G1 X79.65 Y46.01
G1 X79.57 Y46.02
G1 X79.49 Y46.03
G1 X79.41 Y46.04
G1 X79.33 Y46.06
G1 X79.25 Y46.07
G1 X79.17 Y46.09
G1 X79.09 Y46.10
G1 X79.01 Y46.12
G1 X78.93 Y46.14
G1 X78.85 Y46.16
G1 X78.77 Y46.18
G1 X78.69 Y46.19
G1 X78.61 Y46.21
G1 X78.53 Y46.24
G1 X78.45 Y46.26
G1 X78.38 Y46.28
G1 X78.30 Y46.30
G1 X78.22 Y46.32
G1 X78.14 Y46.35
G1 X78.06 Y46.37
G1 X77.98 Y46.40
G1 X77.91 Y46.42
G1 X77.83 Y46.45
G1 X77.75 Y46.48
G1 X77.67 Y46.51
G1 X77.60 Y46.53
G1 X77.52 Y46.56
G1 X77.44 Y46.59
G1 X77.37 Y46.62
G1 X77.29 Y46.65
G1 X77.21 Y46.69
G1 X77.14 Y46.72
G1 X77.06 Y46.75
G1 X76.99 Y46.78
G1 X76.91 Y46.82
G1 X76.84 Y46.85
G1 X76.76 Y46.89
G1 X76.69 Y46.93
G1 X76.61 Y46.96
G1 X76.54 Y47.00
G1 X76.47 Y47.04
G1 X76.39 Y47.08
G1 X76.32 Y47.12
G1 X76.25 Y47.16
G1 X76.17 Y47.20
G1 X76.10 Y47.24
G1 X76.03 Y47.28
G1 X75.96 Y47.32
G1 X75.88 Y47.37
G1 X75.81 Y47.41
G1 X75.74 Y47.46
G1 X75.67 Y47.50
G1 X75.60 Y47.55
G1 X75.53 Y47.59
G1 X75.47 Y47.64
G1 X75.40 Y47.69
G1 X75.33 Y47.73
G1 X75.26 Y47.78
G1 X75.19 Y47.83
G1 X75.13 Y47.88
G1 X75.06 Y47.93
G1 X75.00 Y47.98
G1 X74.93 Y48.03
G1 X74.87 Y48.08
G1 X74.80 Y48.13
G1 X74.74 Y48.18
G1 X74.68 Y48.24
G1 X74.61 Y48.29
G1 X74.55 Y48.34
G1 X74.49 Y48.40
G1 X74.43 Y48.45
G1 X74.37 Y48.51
G1 X74.31 Y48.56
G1 X74.25 Y48.62
G1 X74.19 Y48.67
G1 X74.13 Y48.73
G1 X74.07 Y48.79
G1 X74.01 Y48.84
G1 X73.96 Y48.90
G1 X73.90 Y48.96
G1 X73.84 Y49.02
G1 X73.79 Y49.08
G1 X73.73 Y49.14
G1 X73.68 Y49.20
G1 X73.62 Y49.26
G1 X73.57 Y49.32
G1 X73.52 Y49.38
G1 X73.46 Y49.44
G1 X73.41 Y49.51
G1 X73.36 Y49.57
G1 X73.31 Y49.63
G1 X73.26 Y49.70
G1 X73.21 Y49.76
G1 X73.16 Y49.82
G1 X73.11 Y49.89
G1 X73.06 Y49.95
G1 X73.01 Y50.02
G1 X72.97 Y50.08
G1 X72.92 Y50.15
G1 X72.87 Y50.22
G1 X72.83 Y50.28
G1 X72.78 Y50.35
G1 X72.74 Y50.42
G1 X72.69 Y50.49
G1 X72.65 Y50.55
G1 X72.61 Y50.62
G1 X72.56 Y50.69
G1 X72.52 Y50.76
G1 X72.48 Y50.83
G1 X72.44 Y50.90
G1 X72.40 Y50.97
G1 X72.36 Y51.04
G1 X72.32 Y51.11
G1 X72.28 Y51.18
G1 X72.24 Y51.25
G1 X72.21 Y51.33
G1 X72.17 Y51.40
G1 X72.13 Y51.47
G1 X72.10 Y51.54
G1 X72.06 Y51.62
G1 X72.03 Y51.69
G1 X72.00 Y51.76
G1 X71.96 Y51.84
G1 X71.93 Y51.91
G1 X71.90 Y51.99
G1 X71.87 Y52.06
G1 X71.84 Y52.14
G1 X71.81 Y52.21
G1 X71.78 Y52.29
G1 X71.75 Y52.36
G1 X71.72 Y52.44
G1 X71.69 Y52.51
G1 X71.66 Y52.59
G1 X71.64 Y52.67
G1 X71.61 Y52.75
G1 X71.59 Y52.82
G1 X71.56 Y52.90
G1 X71.54 Y52.98
G1 X71.51 Y53.06
G1 X71.49 Y53.13
G1 X71.47 Y53.21
G1 X71.45 Y53.29
G1 X71.43 Y53.37
G1 X71.40 Y53.45
G1 X71.39 Y53.53
G1 X71.37 Y53.61
G1 X71.35 Y53.69
G1 X71.33 Y53.77
G1 X71.31 Y53.85
G1 X71.30 Y53.93
G1 X71.28 Y54.01
G1 X71.27 Y54.09
G1 X71.25 Y54.17
G1 X71.24 Y54.25
G1 X71.22 Y54.33
G1 X71.21 Y54.41
G1 X71.20 Y54.49
G1 X71.19 Y54.58
G1 X71.18 Y54.66
G1 X71.17 Y54.74
G1 X71.16 Y54.82
G1 X71.15 Y54.90
G1 X71.14 Y54.99
G1 X71.13 Y55.07
G1 X71.13 Y55.15
G1 X71.12 Y55.23
G1 X71.12 Y55.32
G1 X71.11 Y55.40
G1 X71.11 Y55.48
G1 X71.11 Y55.57
G1 X71.10 Y55.65
G1 X71.10 Y55.73
G1 X71.10 Y55.82
G1 X71.10 Y55.90

; Pass 0 Path 24
G0 X85.70 Y66.85
G1 X85.70 Y69.95 S1000.00 F400
G1 X94.50 Y69.95
G1 X94.50 Y66.85
G1 X85.70 Y66.85
G1 X85.70 Y66.85

; Pass 0 Path 25
G0 X91.10 Y63.90
G1 X159.10 Y63.90 S1000.00 F400
G1 X159.10 Y63.90
G1 X159.10 Y63.90
G1 X91.10 Y63.90
G1 X91.10 Y63.90

; Pass 0 Path 26
G0 X103.70 Y66.85
G1 X103.70 Y69.95 S1000.00 F400
G1 X112.50 Y69.95
G1 X112.50 Y66.85
G1 X103.70 Y66.85
G1 X103.70 Y66.85

; Pass 0 Path 27
G0 X121.70 Y66.85
G1 X121.70 Y69.95 S1000.00 F400
G1 X130.50 Y69.95
G1 X130.50 Y66.85
G1 X121.70 Y66.85
G1 X121.70 Y66.85

; Pass 0 Path 28
G0 X139.70 Y66.85
G1 X139.70 Y69.95 S1000.00 F400
G1 X148.50 Y69.95
G1 X148.50 Y66.85
G1 X139.70 Y66.85
G1 X139.70 Y66.85

; Pass 0 Path 29
G0 X165.30 Y63.90
G1 X165.30 Y63.90 S1000.00 F400
G1 X321.30 Y63.90
G1 X321.30 Y63.90
G1 X321.30 Y63.90
G1 X165.30 Y63.90
G1 X165.30 Y63.90

; Pass 0 Path 30
G0 X175.90 Y66.85
G1 X175.90 Y69.95 S1000.00 F400
G1 X184.70 Y69.95
G1 X184.70 Y66.85
G1 X175.90 Y66.85
G1 X175.90 Y66.85

; Pass 0 Path 31
G0 X193.90 Y66.85
G1 X193.90 Y69.95 S1000.00 F400
G1 X202.70 Y69.95
G1 X202.70 Y66.85
G1 X193.90 Y66.85
G1 X193.90 Y66.85

; Pass 0 Path 32
G0 X211.90 Y66.85
G1 X211.90 Y69.95 S1000.00 F400
G1 X220.70 Y69.95
G1 X220.70 Y66.85
G1 X211.90 Y66.85
G1 X211.90 Y66.85

; Pass 0 Path 33
G0 X229.90 Y66.85
G1 X229.90 Y69.95 S1000.00 F400
G1 X238.70 Y69.95
G1 X238.70 Y66.85
G1 X229.90 Y66.85
G1 X229.90 Y66.85

; Pass 0 Path 34
G0 X247.90 Y66.85
G1 X247.90 Y69.95 S1000.00 F400
G1 X256.70 Y69.95
G1 X256.70 Y66.85
G1 X247.90 Y66.85
G1 X247.90 Y66.85

; Pass 0 Path 35
G0 X265.90 Y66.85
G1 X265.90 Y69.95 S1000.00 F400
G1 X274.70 Y69.95
G1 X274.70 Y66.85
G1 X265.90 Y66.85
G1 X265.90 Y66.85

; Pass 0 Path 36
G0 X283.90 Y66.85
G1 X283.90 Y69.95 S1000.00 F400
G1 X292.70 Y69.95
G1 X292.70 Y66.85
G1 X283.90 Y66.85
G1 X283.90 Y66.85

; Pass 0 Path 37
G0 X301.90 Y66.85
G1 X301.90 Y69.95 S1000.00 F400
G1 X310.70 Y69.95
G1 X310.70 Y66.85
G1 X301.90 Y66.85
G1 X301.90 Y66.85

; Pass 0 Path 38
G0 X301.90 Y130.75
G1 X301.90 Y133.85 S1000.00 F400
G1 X310.70 Y133.85
G1 X310.70 Y130.75
G1 X301.90 Y130.75
G1 X301.90 Y130.75

; Pass 0 Path 39
G0 X292.70 Y130.75
G1 X283.90 Y130.75 S1000.00 F400
G1 X283.90 Y133.85
G1 X292.70 Y133.85
G1 X292.70 Y130.75

; Pass 0 Path 40
G0 X274.70 Y130.75
G1 X265.90 Y130.75 S1000.00 F400
G1 X265.90 Y133.85
G1 X274.70 Y133.85
G1 X274.70 Y130.75

; Pass 0 Path 41
G0 X256.70 Y130.75
G1 X247.90 Y130.75 S1000.00 F400
G1 X247.90 Y133.85
G1 X256.70 Y133.85
G1 X256.70 Y130.75

; Pass 0 Path 42
G0 X238.70 Y130.75
G1 X229.90 Y130.75 S1000.00 F400
G1 X229.90 Y133.85
G1 X238.70 Y133.85
G1 X238.70 Y130.75

; Pass 0 Path 43
G0 X220.70 Y130.75
G1 X211.90 Y130.75 S1000.00 F400
G1 X211.90 Y133.85
G1 X220.70 Y133.85
G1 X220.70 Y130.75

; Pass 0 Path 44
G0 X202.70 Y130.75
G1 X193.90 Y130.75 S1000.00 F400
G1 X193.90 Y133.85
G1 X202.70 Y133.85
G1 X202.70 Y130.75

; Pass 0 Path 45
G0 X184.70 Y130.75
G1 X175.90 Y130.75 S1000.00 F400
G1 X175.90 Y133.85
G1 X184.70 Y133.85
G1 X184.70 Y130.75

; Pass 0 Path 46
G0 X165.30 Y127.80
G1 X165.30 Y127.80 S1000.00 F400
G1 X165.30 Y127.80
G1 X321.30 Y127.80
G1 X321.30 Y127.80
G1 X321.30 Y127.80
G1 X165.30 Y127.80
G1 X165.30 Y127.80

; Pass 0 Path 47
G0 X159.10 Y127.80
G1 X159.10 Y127.80 S1000.00 F400
G1 X91.10 Y127.80
G1 X91.10 Y127.80
G1 X159.10 Y127.80
G1 X159.10 Y127.80

; Pass 0 Path 48
G0 X148.50 Y130.75
G1 X139.70 Y130.75 S1000.00 F400
G1 X139.70 Y133.85
G1 X148.50 Y133.85
G1 X148.50 Y130.75

; Pass 0 Path 49
G0 X130.50 Y130.75
G1 X121.70 Y130.75 S1000.00 F400
G1 X121.70 Y133.85
G1 X130.50 Y133.85
G1 X130.50 Y130.75

; Pass 0 Path 50
G0 X112.50 Y130.75
G1 X103.70 Y130.75 S1000.00 F400
G1 X103.70 Y133.85
G1 X112.50 Y133.85
G1 X112.50 Y130.75

; Pass 0 Path 51
G0 X94.50 Y130.75
G1 X85.70 Y130.75 S1000.00 F400
G1 X85.70 Y133.85
G1 X94.50 Y133.85
G1 X94.50 Y130.75

; Pass 0 Path 52
G0 X91.10 Y127.80
G1 X91.10 Y119.80 S1000.00 F400
G1 X71.10 Y119.80
G1 X71.10 Y127.80
G1 X3.10 Y127.80
G1 X3.10 Y127.80
G1 X3.10 Y127.80
G1 X71.10 Y127.80
G1 X71.10 Y127.80
G1 X91.10 Y127.80

; Pass 0 Path 53
G0 X91.10 Y119.80
G1 X91.10 Y119.72 S1000.00 F400
G1 X91.10 Y119.63
G1 X91.10 Y119.55
G1 X91.09 Y119.47
G1 X91.09 Y119.38
G1 X91.09 Y119.30
G1 X91.08 Y119.22
G1 X91.08 Y119.13
G1 X91.07 Y119.05
G1 X91.07 Y118.97
G1 X91.06 Y118.89
G1 X91.05 Y118.80
G1 X91.04 Y118.72
G1 X91.03 Y118.64
G1 X91.02 Y118.56
G1 X91.01 Y118.48
G1 X91.00 Y118.39
G1 X90.99 Y118.31
G1 X90.98 Y118.23
G1 X90.96 Y118.15
G1 X90.95 Y118.07
G1 X90.93 Y117.99
G1 X90.92 Y117.91
G1 X90.90 Y117.83
G1 X90.89 Y117.75
G1 X90.87 Y117.67
G1 X90.85 Y117.59
G1 X90.83 Y117.51
G1 X90.81 Y117.43
G1 X90.79 Y117.35
G1 X90.77 Y117.27
G1 X90.75 Y117.19
G1 X90.73 Y117.11
G1 X90.71 Y117.03
G1 X90.69 Y116.96
G1 X90.66 Y116.88
G1 X90.64 Y116.80
G1 X90.61 Y116.72
G1 X90.59 Y116.65
G1 X90.56 Y116.57
G1 X90.54 Y116.49
G1 X90.51 Y116.41
G1 X90.48 Y116.34
G1 X90.45 Y116.26
G1 X90.42 Y116.19
G1 X90.39 Y116.11
G1 X90.36 Y116.04
G1 X90.33 Y115.96
G1 X90.30 Y115.89
G1 X90.27 Y115.81
G1 X90.24 Y115.74
G1 X90.20 Y115.66
G1 X90.17 Y115.59
G1 X90.14 Y115.52
G1 X90.10 Y115.44
G1 X90.07 Y115.37
G1 X90.03 Y115.30
G1 X89.99 Y115.23
G1 X89.96 Y115.15
G1 X89.92 Y115.08
G1 X89.88 Y115.01
G1 X89.84 Y114.94
G1 X89.80 Y114.87
G1 X89.76 Y114.80
G1 X89.72 Y114.73
G1 X89.68 Y114.66
G1 X89.64 Y114.59
G1 X89.59 Y114.52
G1 X89.55 Y114.45
G1 X89.51 Y114.39
G1 X89.46 Y114.32
G1 X89.42 Y114.25
G1 X89.37 Y114.18
G1 X89.33 Y114.12
G1 X89.28 Y114.05
G1 X89.23 Y113.98
G1 X89.19 Y113.92
G1 X89.14 Y113.85
G1 X89.09 Y113.79
G1 X89.04 Y113.72
G1 X88.99 Y113.66
G1 X88.94 Y113.60
G1 X88.89 Y113.53
G1 X88.84 Y113.47
G1 X88.79 Y113.41
G1 X88.74 Y113.34
G1 X88.68 Y113.28
G1 X88.63 Y113.22
G1 X88.58 Y113.16
G1 X88.52 Y113.10
G1 X88.47 Y113.04
G1 X88.41 Y112.98
G1 X88.36 Y112.92
G1 X88.30 Y112.86
G1 X88.24 Y112.80
G1 X88.19 Y112.74
G1 X88.13 Y112.69
G1 X88.07 Y112.63
G1 X88.01 Y112.57
G1 X87.95 Y112.52
G1 X87.89 Y112.46
G1 X87.83 Y112.41
G1 X87.77 Y112.35
G1 X87.71 Y112.30
G1 X87.65 Y112.24
G1 X87.59 Y112.19
G1 X87.52 Y112.14
G1 X87.46 Y112.08
G1 X87.40 Y112.03
G1 X87.33 Y111.98
G1 X87.27 Y111.93
G1 X87.20 Y111.88
G1 X87.14 Y111.83
G1 X87.07 Y111.78
G1 X87.00 Y111.73
G1 X86.94 Y111.68
G1 X86.87 Y111.63
G1 X86.80 Y111.59
G1 X86.73 Y111.54
G1 X86.67 Y111.49
G1 X86.60 Y111.45
G1 X86.53 Y111.40
G1 X86.46 Y111.36
G1 X86.39 Y111.31
G1 X86.32 Y111.27
G1 X86.24 Y111.22
G1 X86.17 Y111.18
G1 X86.10 Y111.14
G1 X86.03 Y111.10
G1 X85.95 Y111.06
G1 X85.88 Y111.02
G1 X85.81 Y110.98
G1 X85.73 Y110.94
G1 X85.66 Y110.90
G1 X85.59 Y110.86
G1 X85.51 Y110.83
G1 X85.44 Y110.79
G1 X85.36 Y110.75
G1 X85.29 Y110.72
G1 X85.21 Y110.68
G1 X85.14 Y110.65
G1 X85.06 Y110.62
G1 X84.98 Y110.59
G1 X84.91 Y110.55
G1 X84.83 Y110.52
G1 X84.76 Y110.49
G1 X84.68 Y110.46
G1 X84.60 Y110.43
G1 X84.53 Y110.41
G1 X84.45 Y110.38
G1 X84.37 Y110.35
G1 X84.29 Y110.32
G1 X84.22 Y110.30
G1 X84.14 Y110.27
G1 X84.06 Y110.25
G1 X83.98 Y110.22
G1 X83.90 Y110.20
G1 X83.82 Y110.18
G1 X83.75 Y110.16
G1 X83.67 Y110.14
G1 X83.59 Y110.11
G1 X83.51 Y110.09
G1 X83.43 Y110.08
G1 X83.35 Y110.06
G1 X83.27 Y110.04
G1 X83.19 Y110.02
G1 X83.11 Y110.00
G1 X83.03 Y109.99
G1 X82.95 Y109.97
G1 X82.87 Y109.96
G1 X82.79 Y109.94
G1 X82.71 Y109.93
G1 X82.63 Y109.92
G1 X82.55 Y109.91
G1 X82.47 Y109.89
G1 X82.39 Y109.88
G1 X82.31 Y109.87
G1 X82.23 Y109.86
G1 X82.15 Y109.86
G1 X82.07 Y109.85
G1 X81.99 Y109.84
G1 X81.91 Y109.83
G1 X81.83 Y109.83
G1 X81.75 Y109.82
G1 X81.67 Y109.82
G1 X81.59 Y109.81
G1 X81.50 Y109.81
G1 X81.42 Y109.81
G1 X81.34 Y109.80
G1 X81.26 Y109.80
G1 X81.18 Y109.80
G1 X81.10 Y109.80
G1 X81.02 Y109.80
G1 X80.94 Y109.80
G1 X80.86 Y109.80
G1 X80.78 Y109.81
G1 X80.70 Y109.81
G1 X80.61 Y109.81
G1 X80.53 Y109.82
G1 X80.45 Y109.82
G1 X80.37 Y109.83
G1 X80.29 Y109.83
G1 X80.21 Y109.84
G1 X80.13 Y109.85
G1 X80.05 Y109.86
G1 X79.97 Y109.86
G1 X79.89 Y109.87
G1 X79.81 Y109.88
G1 X79.73 Y109.89
G1 X79.65 Y109.91
G1 X79.57 Y109.92
G1 X79.49 Y109.93
G1 X79.41 Y109.94
G1 X79.33 Y109.96
G1 X79.25 Y109.97
G1 X79.17 Y109.99
G1 X79.09 Y110.00
G1 X79.01 Y110.02
G1 X78.93 Y110.04
G1 X78.85 Y110.06
G1 X78.77 Y110.08
G1 X78.69 Y110.09
G1 X78.61 Y110.11
G1 X78.53 Y110.14
G1 X78.45 Y110.16
G1 X78.38 Y110.18
G1 X78.30 Y110.20
G1 X78.22 Y110.22
G1 X78.14 Y110.25
G1 X78.06 Y110.27
G1 X77.98 Y110.30
G1 X77.91 Y110.32
G1 X77.83 Y110.35
G1 X77.75 Y110.38
G1 X77.67 Y110.41
G1 X77.60 Y110.43
G1 X77.52 Y110.46
G1 X77.44 Y110.49
G1 X77.37 Y110.52
G1 X77.29 Y110.55
G1 X77.21 Y110.59
G1 X77.14 Y110.62
G1 X77.06 Y110.65
G1 X76.99 Y110.68
G1 X76.91 Y110.72
G1 X76.84 Y110.75
G1 X76.76 Y110.79
G1 X76.69 Y110.83
G1 X76.61 Y110.86
G1 X76.54 Y110.90
G1 X76.47 Y110.94
G1 X76.39 Y110.98
G1 X76.32 Y111.02
G1 X76.25 Y111.06
G1 X76.17 Y111.10
G1 X76.10 Y111.14
G1 X76.03 Y111.18
G1 X75.96 Y111.22
G1 X75.88 Y111.27
G1 X75.81 Y111.31
G1 X75.74 Y111.36
G1 X75.67 Y111.40
G1 X75.60 Y111.45
G1 X75.53 Y111.49
G1 X75.47 Y111.54
G1 X75.40 Y111.59
G1 X75.33 Y111.63
G1 X75.26 Y111.68
G1 X75.19 Y111.73
G1 X75.13 Y111.78
G1 X75.06 Y111.83
G1 X75.00 Y111.88
G1 X74.93 Y111.93
G1 X74.87 Y111.98
G1 X74.80 Y112.03
G1 X74.74 Y112.08
G1 X74.68 Y112.14
G1 X74.61 Y112.19
G1 X74.55 Y112.24
G1 X74.49 Y112.30
G1 X74.43 Y112.35
G1 X74.37 Y112.41
G1 X74.31 Y112.46
G1 X74.25 Y112.52
G1 X74.19 Y112.57
G1 X74.13 Y112.63
G1 X74.07 Y112.69
G1 X74.01 Y112.74
G1 X73.96 Y112.80
G1 X73.90 Y112.86
G1 X73.84 Y112.92
G1 X73.79 Y112.98
G1 X73.73 Y113.04
G1 X73.68 Y113.10
G1 X73.62 Y113.16
G1 X73.57 Y113.22
G1 X73.52 Y113.28
G1 X73.46 Y113.34
G1 X73.41 Y113.41
G1 X73.36 Y113.47
G1 X73.31 Y113.53
G1 X73.26 Y113.60
G1 X73.21 Y113.66
G1 X73.16 Y113.72
G1 X73.11 Y113.79
G1 X73.06 Y113.85
G1 X73.01 Y113.92
G1 X72.97 Y113.98
G1 X72.92 Y114.05
G1 X72.87 Y114.12
G1 X72.83 Y114.18
G1 X72.78 Y114.25
G1 X72.74 Y114.32
G1 X72.69 Y114.39
G1 X72.65 Y114.45
G1 X72.61 Y114.52
G1 X72.56 Y114.59
G1 X72.52 Y114.66
G1 X72.48 Y114.73
G1 X72.44 Y114.80
G1 X72.40 Y114.87
G1 X72.36 Y114.94
G1 X72.32 Y115.01
G1 X72.28 Y115.08
G1 X72.24 Y115.15
G1 X72.21 Y115.23
G1 X72.17 Y115.30
G1 X72.13 Y115.37
G1 X72.10 Y115.44
G1 X72.06 Y115.52
G1 X72.03 Y115.59
G1 X72.00 Y115.66
G1 X71.96 Y115.74
G1 X71.93 Y115.81
G1 X71.90 Y115.89
G1 X71.87 Y115.96
G1 X71.84 Y116.04
G1 X71.81 Y116.11
G1 X71.78 Y116.19
G1 X71.75 Y116.26
G1 X71.72 Y116.34
G1 X71.69 Y116.41
G1 X71.66 Y116.49
G1 X71.64 Y116.57
G1 X71.61 Y116.65
G1 X71.59 Y116.72
G1 X71.56 Y116.80
G1 X71.54 Y116.88
G1 X71.51 Y116.96
G1 X71.49 Y117.03
G1 X71.47 Y117.11
G1 X71.45 Y117.19
G1 X71.43 Y117.27
G1 X71.40 Y117.35
G1 X71.39 Y117.43
G1 X71.37 Y117.51
G1 X71.35 Y117.59
G1 X71.33 Y117.67
G1 X71.31 Y117.75
G1 X71.30 Y117.83
G1 X71.28 Y117.91
G1 X71.27 Y117.99
G1 X71.25 Y118.07
G1 X71.24 Y118.15
G1 X71.22 Y118.23
G1 X71.21 Y118.31
G1 X71.20 Y118.39
G1 X71.19 Y118.48
G1 X71.18 Y118.56
G1 X71.17 Y118.64
G1 X71.16 Y118.72
G1 X71.15 Y118.80
G1 X71.14 Y118.89
G1 X71.13 Y118.97
G1 X71.13 Y119.05
G1 X71.12 Y119.13
G1 X71.12 Y119.22
G1 X71.11 Y119.30
G1 X71.11 Y119.38
G1 X71.11 Y119.47
G1 X71.10 Y119.55
G1 X71.10 Y119.63
G1 X71.10 Y119.72
G1 X71.10 Y119.80
G1 X91.10 Y119.80

; Pass 0 Path 54
G0 X76.50 Y130.75
G1 X67.70 Y130.75 S1000.00 F400
G1 X67.70 Y133.85
G1 X76.50 Y133.85
G1 X76.50 Y130.75

; Pass 0 Path 55
G0 X58.50 Y130.75
G1 X49.70 Y130.75 S1000.00 F400
G1 X49.70 Y133.85
G1 X58.50 Y133.85
G1 X58.50 Y130.75

; Pass 0 Path 56
G0 X40.50 Y130.75
G1 X31.70 Y130.75 S1000.00 F400
G1 X31.70 Y133.85
G1 X40.50 Y133.85
G1 X40.50 Y130.75

; Pass 0 Path 57
G0 X22.50 Y130.75
G1 X13.70 Y130.75 S1000.00 F400
G1 X13.70 Y133.85
G1 X22.50 Y133.85
G1 X22.50 Y130.75

; Pass 0 Path 58
G0 X22.50 Y194.65
G1 X13.70 Y194.65 S1000.00 F400
G1 X13.70 Y197.75
G1 X22.50 Y197.75
G1 X22.50 Y194.65

; Pass 0 Path 59
G0 X31.70 Y194.65
G1 X31.70 Y197.75 S1000.00 F400
G1 X40.50 Y197.75
G1 X40.50 Y194.65
G1 X31.70 Y194.65
G1 X31.70 Y194.65

; Pass 0 Path 60
G0 X49.70 Y194.65
G1 X49.70 Y197.75 S1000.00 F400
G1 X58.50 Y197.75
G1 X58.50 Y194.65
G1 X49.70 Y194.65
G1 X49.70 Y194.65

; Pass 0 Path 61
G0 X67.70 Y194.65
G1 X67.70 Y197.75 S1000.00 F400
G1 X76.50 Y197.75
G1 X76.50 Y194.65
G1 X67.70 Y194.65
G1 X67.70 Y194.65

; Pass 0 Path 62
G0 X71.10 Y191.70
G1 X71.10 Y191.70 S1000.00 F400
G1 X91.10 Y191.70
G1 X91.10 Y183.70
G1 X71.10 Y183.70
G1 X71.10 Y191.70
G1 X3.10 Y191.70
G1 X3.10 Y191.70
G1 X3.10 Y191.70
G1 X71.10 Y191.70

; Pass 0 Path 63
G0 X71.10 Y183.70
G1 X91.10 Y183.70 S1000.00 F400
G1 X91.10 Y183.62
G1 X91.10 Y183.53
G1 X91.10 Y183.45
G1 X91.09 Y183.37
G1 X91.09 Y183.28
G1 X91.09 Y183.20
G1 X91.08 Y183.12
G1 X91.08 Y183.03
G1 X91.07 Y182.95
G1 X91.07 Y182.87
G1 X91.06 Y182.79
G1 X91.05 Y182.70
G1 X91.04 Y182.62
G1 X91.03 Y182.54
G1 X91.02 Y182.46
G1 X91.01 Y182.38
G1 X91.00 Y182.29
G1 X90.99 Y182.21
G1 X90.98 Y182.13
G1 X90.96 Y182.05
G1 X90.95 Y181.97
G1 X90.93 Y181.89
G1 X90.92 Y181.81
G1 X90.90 Y181.73
G1 X90.89 Y181.65
G1 X90.87 Y181.57
G1 X90.85 Y181.49
G1 X90.83 Y181.41
G1 X90.81 Y181.33
G1 X90.79 Y181.25
G1 X90.77 Y181.17
G1 X90.75 Y181.09
G1 X90.73 Y181.01
G1 X90.71 Y180.93
G1 X90.69 Y180.86
G1 X90.66 Y180.78
G1 X90.64 Y180.70
G1 X90.61 Y180.62
G1 X90.59 Y180.55
G1 X90.56 Y180.47
G1 X90.54 Y180.39
G1 X90.51 Y180.31
G1 X90.48 Y180.24
G1 X90.45 Y180.16
G1 X90.42 Y180.09
G1 X90.39 Y180.01
G1 X90.36 Y179.94
G1 X90.33 Y179.86
G1 X90.30 Y179.79
G1 X90.27 Y179.71
G1 X90.24 Y179.64
G1 X90.20 Y179.56
G1 X90.17 Y179.49
G1 X90.14 Y179.42
G1 X90.10 Y179.34
G1 X90.07 Y179.27
G1 X90.03 Y179.20
G1 X89.99 Y179.13
G1 X89.96 Y179.05
G1 X89.92 Y178.98
G1 X89.88 Y178.91
G1 X89.84 Y178.84
G1 X89.80 Y178.77
G1 X89.76 Y178.70
G1 X89.72 Y178.63
G1 X89.68 Y178.56
G1 X89.64 Y178.49
G1 X89.59 Y178.42
G1 X89.55 Y178.35
G1 X89.51 Y178.29
G1 X89.46 Y178.22
G1 X89.42 Y178.15
G1 X89.37 Y178.08
G1 X89.33 Y178.02
G1 X89.28 Y177.95
G1 X89.23 Y177.88
G1 X89.19 Y177.82
G1 X89.14 Y177.75
G1 X89.09 Y177.69
G1 X89.04 Y177.62
G1 X88.99 Y177.56
G1 X88.94 Y177.50
G1 X88.89 Y177.43
G1 X88.84 Y177.37
G1 X88.79 Y177.31
G1 X88.74 Y177.24
G1 X88.68 Y177.18
G1 X88.63 Y177.12
G1 X88.58 Y177.06
G1 X88.52 Y177.00
G1 X88.47 Y176.94
G1 X88.41 Y176.88
G1 X88.36 Y176.82
G1 X88.30 Y176.76
G1 X88.24 Y176.70
G1 X88.19 Y176.64
G1 X88.13 Y176.59
G1 X88.07 Y176.53
G1 X88.01 Y176.47
G1 X87.95 Y176.42
G1 X87.89 Y176.36
G1 X87.83 Y176.31
G1 X87.77 Y176.25
G1 X87.71 Y176.20
G1 X87.65 Y176.14
G1 X87.59 Y176.09
G1 X87.52 Y176.04
G1 X87.46 Y175.98
G1 X87.40 Y175.93
G1 X87.33 Y175.88
G1 X87.27 Y175.83
G1 X87.20 Y175.78
G1 X87.14 Y175.73
G1 X87.07 Y175.68
G1 X87.00 Y175.63
G1 X86.94 Y175.58
G1 X86.87 Y175.53
G1 X86.80 Y175.49
G1 X86.73 Y175.44
G1 X86.67 Y175.39
G1 X86.60 Y175.35
G1 X86.53 Y175.30
G1 X86.46 Y175.26
G1 X86.39 Y175.21
G1 X86.32 Y175.17
G1 X86.24 Y175.12
G1 X86.17 Y175.08
G1 X86.10 Y175.04
G1 X86.03 Y175.00
G1 X85.95 Y174.96
G1 X85.88 Y174.92
G1 X85.81 Y174.88
G1 X85.73 Y174.84
G1 X85.66 Y174.80
G1 X85.59 Y174.76
G1 X85.51 Y174.73
G1 X85.44 Y174.69
G1 X85.36 Y174.65
G1 X85.29 Y174.62
G1 X85.21 Y174.58
G1 X85.14 Y174.55
G1 X85.06 Y174.52
G1 X84.98 Y174.49
G1 X84.91 Y174.45
G1 X84.83 Y174.42
G1 X84.76 Y174.39
G1 X84.68 Y174.36
G1 X84.60 Y174.33
G1 X84.53 Y174.31
G1 X84.45 Y174.28
G1 X84.37 Y174.25
G1 X84.29 Y174.22
G1 X84.22 Y174.20
G1 X84.14 Y174.17
G1 X84.06 Y174.15
G1 X83.98 Y174.12
G1 X83.90 Y174.10
G1 X83.82 Y174.08
G1 X83.75 Y174.06
G1 X83.67 Y174.04
G1 X83.59 Y174.01
G1 X83.51 Y173.99
G1 X83.43 Y173.98
G1 X83.35 Y173.96
G1 X83.27 Y173.94
G1 X83.19 Y173.92
G1 X83.11 Y173.90
G1 X83.03 Y173.89
G1 X82.95 Y173.87
G1 X82.87 Y173.86
G1 X82.79 Y173.84
G1 X82.71 Y173.83
G1 X82.63 Y173.82
G1 X82.55 Y173.81
G1 X82.47 Y173.79
G1 X82.39 Y173.78
G1 X82.31 Y173.77
G1 X82.23 Y173.76
G1 X82.15 Y173.76
G1 X82.07 Y173.75
G1 X81.99 Y173.74
G1 X81.91 Y173.73
G1 X81.83 Y173.73
G1 X81.75 Y173.72
G1 X81.67 Y173.72
G1 X81.59 Y173.71
G1 X81.50 Y173.71
G1 X81.42 Y173.71
G1 X81.34 Y173.70
G1 X81.26 Y173.70
G1 X81.18 Y173.70
G1 X81.10 Y173.70
G1 X81.02 Y173.70
G1 X80.94 Y173.70
G1 X80.86 Y173.70
G1 X80.78 Y173.71
G1 X80.70 Y173.71
G1 X80.61 Y173.71
G1 X80.53 Y173.72
G1 X80.45 Y173.72
G1 X80.37 Y173.73
G1 X80.29 Y173.73
G1 X80.21 Y173.74
G1 X80.13 Y173.75
G1 X80.05 Y173.76
G1 X79.97 Y173.76
G1 X79.89 Y173.77
G1 X79.81 Y173.78
G1 X79.73 Y173.79
G1 X79.65 Y173.81
G1 X79.57 Y173.82
G1 X79.49 Y173.83
G1 X79.41 Y173.84
G1 X79.33 Y173.86
G1 X79.25 Y173.87
G1 X79.17 Y173.89
G1 X79.09 Y173.90
G1 X79.01 Y173.92
G1 X78.93 Y173.94
G1 X78.85 Y173.96
G1 X78.77 Y173.98
G1 X78.69 Y173.99
G1 X78.61 Y174.01
G1 X78.53 Y174.04
G1 X78.45 Y174.06
G1 X78.38 Y174.08
G1 X78.30 Y174.10
G1 X78.22 Y174.12
G1 X78.14 Y174.15
G1 X78.06 Y174.17
G1 X77.98 Y174.20
G1 X77.91 Y174.22
G1 X77.83 Y174.25
G1 X77.75 Y174.28
G1 X77.67 Y174.31
G1 X77.60 Y174.33
G1 X77.52 Y174.36
G1 X77.44 Y174.39
G1 X77.37 Y174.42
G1 X77.29 Y174.45
G1 X77.21 Y174.49
G1 X77.14 Y174.52
G1 X77.06 Y174.55
G1 X76.99 Y174.58
G1 X76.91 Y174.62
G1 X76.84 Y174.65
G1 X76.76 Y174.69
G1 X76.69 Y174.73
G1 X76.61 Y174.76
G1 X76.54 Y174.80
G1 X76.47 Y174.84
G1 X76.39 Y174.88
G1 X76.32 Y174.92
G1 X76.25 Y174.96
G1 X76.17 Y175.00
G1 X76.10 Y175.04
G1 X76.03 Y175.08
G1 X75.96 Y175.12
G1 X75.88 Y175.17
G1 X75.81 Y175.21
G1 X75.74 Y175.26
G1 X75.67 Y175.30
G1 X75.60 Y175.35
G1 X75.53 Y175.39
G1 X75.47 Y175.44
G1 X75.40 Y175.49
G1 X75.33 Y175.53
G1 X75.26 Y175.58
G1 X75.19 Y175.63
G1 X75.13 Y175.68
G1 X75.06 Y175.73
G1 X75.00 Y175.78
G1 X74.93 Y175.83
G1 X74.87 Y175.88
G1 X74.80 Y175.93
G1 X74.74 Y175.98
G1 X74.68 Y176.04
G1 X74.61 Y176.09
G1 X74.55 Y176.14
G1 X74.49 Y176.20
G1 X74.43 Y176.25
G1 X74.37 Y176.31
G1 X74.31 Y176.36
G1 X74.25 Y176.42
G1 X74.19 Y176.47
G1 X74.13 Y176.53
G1 X74.07 Y176.59
G1 X74.01 Y176.64
G1 X73.96 Y176.70
G1 X73.90 Y176.76
G1 X73.84 Y176.82
G1 X73.79 Y176.88
G1 X73.73 Y176.94
G1 X73.68 Y177.00
G1 X73.62 Y177.06
G1 X73.57 Y177.12
G1 X73.52 Y177.18
G1 X73.46 Y177.24
G1 X73.41 Y177.31
G1 X73.36 Y177.37
G1 X73.31 Y177.43
G1 X73.26 Y177.50
G1 X73.21 Y177.56
G1 X73.16 Y177.62
G1 X73.11 Y177.69
G1 X73.06 Y177.75
G1 X73.01 Y177.82
G1 X72.97 Y177.88
G1 X72.92 Y177.95
G1 X72.87 Y178.02
G1 X72.83 Y178.08
G1 X72.78 Y178.15
G1 X72.74 Y178.22
G1 X72.69 Y178.29
G1 X72.65 Y178.35
G1 X72.61 Y178.42
G1 X72.56 Y178.49
G1 X72.52 Y178.56
G1 X72.48 Y178.63
G1 X72.44 Y178.70
G1 X72.40 Y178.77
G1 X72.36 Y178.84
G1 X72.32 Y178.91
G1 X72.28 Y178.98
G1 X72.24 Y179.05
G1 X72.21 Y179.13
G1 X72.17 Y179.20
G1 X72.13 Y179.27
G1 X72.10 Y179.34
G1 X72.06 Y179.42
G1 X72.03 Y179.49
G1 X72.00 Y179.56
G1 X71.96 Y179.64
G1 X71.93 Y179.71
G1 X71.90 Y179.79
G1 X71.87 Y179.86
G1 X71.84 Y179.94
G1 X71.81 Y180.01
G1 X71.78 Y180.09
G1 X71.75 Y180.16
G1 X71.72 Y180.24
G1 X71.69 Y180.31
G1 X71.66 Y180.39
G1 X71.64 Y180.47
G1 X71.61 Y180.55
G1 X71.59 Y180.62
G1 X71.56 Y180.70
G1 X71.54 Y180.78
G1 X71.51 Y180.86
G1 X71.49 Y180.93
G1 X71.47 Y181.01
G1 X71.45 Y181.09
G1 X71.43 Y181.17
G1 X71.40 Y181.25
G1 X71.39 Y181.33
G1 X71.37 Y181.41
G1 X71.35 Y181.49
G1 X71.33 Y181.57
G1 X71.31 Y181.65
G1 X71.30 Y181.73
G1 X71.28 Y181.81
G1 X71.27 Y181.89
G1 X71.25 Y181.97
G1 X71.24 Y182.05
G1 X71.22 Y182.13
G1 X71.21 Y182.21
G1 X71.20 Y182.29
G1 X71.19 Y182.38
G1 X71.18 Y182.46
G1 X71.17 Y182.54
G1 X71.16 Y182.62
G1 X71.15 Y182.70
G1 X71.14 Y182.79
G1 X71.13 Y182.87
G1 X71.13 Y182.95
G1 X71.12 Y183.03
G1 X71.12 Y183.12
G1 X71.11 Y183.20
G1 X71.11 Y183.28
G1 X71.11 Y183.37
G1 X71.10 Y183.45
G1 X71.10 Y183.53
G1 X71.10 Y183.62
G1 X71.10 Y183.70

; Pass 0 Path 64
G0 X85.70 Y194.65
G1 X85.70 Y197.75 S1000.00 F400
G1 X94.50 Y197.75
G1 X94.50 Y194.65
G1 X85.70 Y194.65
G1 X85.70 Y194.65

; Pass 0 Path 65
G0 X91.10 Y191.70
G1 X159.10 Y191.70 S1000.00 F400
G1 X159.10 Y191.70
G1 X159.10 Y191.70
G1 X91.10 Y191.70
G1 X91.10 Y191.70

; Pass 0 Path 66
G0 X103.70 Y194.65
G1 X103.70 Y197.75 S1000.00 F400
G1 X112.50 Y197.75
G1 X112.50 Y194.65
G1 X103.70 Y194.65
G1 X103.70 Y194.65

; Pass 0 Path 67
G0 X121.70 Y194.65
G1 X121.70 Y197.75 S1000.00 F400
G1 X130.50 Y197.75
G1 X130.50 Y194.65
G1 X121.70 Y194.65
G1 X121.70 Y194.65

; Pass 0 Path 68
G0 X139.70 Y194.65
G1 X139.70 Y197.75 S1000.00 F400
G1 X148.50 Y197.75
G1 X148.50 Y194.65
G1 X139.70 Y194.65
G1 X139.70 Y194.65

; Pass 0 Path 69
G0 X165.30 Y191.70
G1 X165.30 Y191.70 S1000.00 F400
G1 X321.30 Y191.70
G1 X321.30 Y191.70
G1 X321.30 Y191.70
G1 X165.30 Y191.70
G1 X165.30 Y191.70

; Pass 0 Path 70
G0 X175.90 Y194.65
G1 X175.90 Y197.75 S1000.00 F400
G1 X184.70 Y197.75
G1 X184.70 Y194.65
G1 X175.90 Y194.65
G1 X175.90 Y194.65

; Pass 0 Path 71
G0 X193.90 Y194.65
G1 X193.90 Y197.75 S1000.00 F400
G1 X202.70 Y197.75
G1 X202.70 Y194.65
G1 X193.90 Y194.65
G1 X193.90 Y194.65

; Pass 0 Path 72
G0 X211.90 Y194.65
G1 X211.90 Y197.75 S1000.00 F400
G1 X220.70 Y197.75
G1 X220.70 Y194.65
G1 X211.90 Y194.65
G1 X211.90 Y194.65

; Pass 0 Path 73
G0 X229.90 Y194.65
G1 X229.90 Y197.75 S1000.00 F400
G1 X238.70 Y197.75
G1 X238.70 Y194.65
G1 X229.90 Y194.65
G1 X229.90 Y194.65

; Pass 0 Path 74
G0 X247.90 Y194.65
G1 X247.90 Y197.75 S1000.00 F400
G1 X256.70 Y197.75
G1 X256.70 Y194.65
G1 X247.90 Y194.65
G1 X247.90 Y194.65

; Pass 0 Path 75
G0 X265.90 Y194.65
G1 X265.90 Y197.75 S1000.00 F400
G1 X274.70 Y197.75
G1 X274.70 Y194.65
G1 X265.90 Y194.65
G1 X265.90 Y194.65

; Pass 0 Path 76
G0 X283.90 Y194.65
G1 X283.90 Y197.75 S1000.00 F400
G1 X292.70 Y197.75
G1 X292.70 Y194.65
G1 X283.90 Y194.65
G1 X283.90 Y194.65

; Pass 0 Path 77
G0 X301.90 Y194.65
G1 X301.90 Y197.75 S1000.00 F400
G1 X310.70 Y197.75
G1 X310.70 Y194.65
G1 X301.90 Y194.65
G1 X301.90 Y194.65

; Pass 0 Path 78
G0 X301.90 Y258.55
G1 X301.90 Y261.65 S1000.00 F400
G1 X310.70 Y261.65
G1 X310.70 Y258.55
G1 X301.90 Y258.55
G1 X301.90 Y258.55

; Pass 0 Path 79
G0 X292.70 Y258.55
G1 X283.90 Y258.55 S1000.00 F400
G1 X283.90 Y261.65
G1 X292.70 Y261.65
G1 X292.70 Y258.55

; Pass 0 Path 80
G0 X274.70 Y258.55
G1 X265.90 Y258.55 S1000.00 F400
G1 X265.90 Y261.65
G1 X274.70 Y261.65
G1 X274.70 Y258.55

; Pass 0 Path 81
G0 X256.70 Y258.55
G1 X247.90 Y258.55 S1000.00 F400
G1 X247.90 Y261.65
G1 X256.70 Y261.65
G1 X256.70 Y258.55

; Pass 0 Path 82
G0 X238.70 Y258.55
G1 X229.90 Y258.55 S1000.00 F400
G1 X229.90 Y261.65
G1 X238.70 Y261.65
G1 X238.70 Y258.55

; Pass 0 Path 83
G0 X220.70 Y258.55
G1 X211.90 Y258.55 S1000.00 F400
G1 X211.90 Y261.65
G1 X220.70 Y261.65
G1 X220.70 Y258.55

; Pass 0 Path 84
G0 X202.70 Y258.55
G1 X193.90 Y258.55 S1000.00 F400
G1 X193.90 Y261.65
G1 X202.70 Y261.65
G1 X202.70 Y258.55

; Pass 0 Path 85
G0 X184.70 Y258.55
G1 X175.90 Y258.55 S1000.00 F400
G1 X175.90 Y261.65
G1 X184.70 Y261.65
G1 X184.70 Y258.55

; Pass 0 Path 86
G0 X165.30 Y255.60
G1 X165.30 Y255.60 S1000.00 F400
G1 X165.30 Y255.60
G1 X321.30 Y255.60
G1 X321.30 Y255.60
G1 X321.30 Y255.60
G1 X165.30 Y255.60
G1 X165.30 Y255.60

; Pass 0 Path 87
G0 X159.10 Y255.60
G1 X159.10 Y255.60 S1000.00 F400
G1 X91.10 Y255.60
G1 X91.10 Y255.60
G1 X159.10 Y255.60
G1 X159.10 Y255.60

; Pass 0 Path 88
G0 X148.50 Y258.55
G1 X139.70 Y258.55 S1000.00 F400
G1 X139.70 Y261.65
G1 X148.50 Y261.65
G1 X148.50 Y258.55

; Pass 0 Path 89
G0 X130.50 Y258.55
G1 X121.70 Y258.55 S1000.00 F400
G1 X121.70 Y261.65
G1 X130.50 Y261.65
G1 X130.50 Y258.55

; Pass 0 Path 90
G0 X112.50 Y258.55
G1 X103.70 Y258.55 S1000.00 F400
G1 X103.70 Y261.65
G1 X112.50 Y261.65
G1 X112.50 Y258.55

; Pass 0 Path 91
G0 X94.50 Y258.55
G1 X85.70 Y258.55 S1000.00 F400
G1 X85.70 Y261.65
G1 X94.50 Y261.65
G1 X94.50 Y258.55

; Pass 0 Path 92
G0 X91.10 Y255.60
G1 X91.10 Y247.60 S1000.00 F400
G1 X71.10 Y247.60
G1 X71.10 Y255.60
G1 X3.10 Y255.60
G1 X3.10 Y255.60
G1 X3.10 Y255.60
G1 X71.10 Y255.60
G1 X71.10 Y255.60
G1 X91.10 Y255.60

; Pass 0 Path 93
G0 X91.10 Y247.60
G1 X91.10 Y247.52 S1000.00 F400
G1 X91.10 Y247.43
G1 X91.10 Y247.35
G1 X91.09 Y247.27
G1 X91.09 Y247.18
G1 X91.09 Y247.10
G1 X91.08 Y247.02
G1 X91.08 Y246.93
G1 X91.07 Y246.85
G1 X91.07 Y246.77
G1 X91.06 Y246.69
G1 X91.05 Y246.60
G1 X91.04 Y246.52
G1 X91.03 Y246.44
G1 X91.02 Y246.36
G1 X91.01 Y246.28
G1 X91.00 Y246.19
G1 X90.99 Y246.11
G1 X90.98 Y246.03
G1 X90.96 Y245.95
G1 X90.95 Y245.87
G1 X90.93 Y245.79
G1 X90.92 Y245.71
G1 X90.90 Y245.63
G1 X90.89 Y245.55
G1 X90.87 Y245.47
G1 X90.85 Y245.39
G1 X90.83 Y245.31
G1 X90.81 Y245.23
G1 X90.79 Y245.15
G1 X90.77 Y245.07
G1 X90.75 Y244.99
G1 X90.73 Y244.91
G1 X90.71 Y244.83
G1 X90.69 Y244.76
G1 X90.66 Y244.68
G1 X90.64 Y244.60
G1 X90.61 Y244.52
G1 X90.59 Y244.45
G1 X90.56 Y244.37
G1 X90.54 Y244.29
G1 X90.51 Y244.21
G1 X90.48 Y244.14
G1 X90.45 Y244.06
G1 X90.42 Y243.99
G1 X90.39 Y243.91
G1 X90.36 Y243.84
G1 X90.33 Y243.76
G1 X90.30 Y243.69
G1 X90.27 Y243.61
G1 X90.24 Y243.54
G1 X90.20 Y243.46
G1 X90.17 Y243.39
G1 X90.14 Y243.32
G1 X90.10 Y243.24
G1 X90.07 Y243.17
G1 X90.03 Y243.10
G1 X89.99 Y243.03
G1 X89.96 Y242.95
G1 X89.92 Y242.88
G1 X89.88 Y242.81
G1 X89.84 Y242.74
G1 X89.80 Y242.67
G1 X89.76 Y242.60
G1 X89.72 Y242.53
G1 X89.68 Y242.46
G1 X89.64 Y242.39
G1 X89.59 Y242.32
G1 X89.55 Y242.25
G1 X89.51 Y242.19
G1 X89.46 Y242.12
G1 X89.42 Y242.05
G1 X89.37 Y241.98
G1 X89.33 Y241.92
G1 X89.28 Y241.85
G1 X89.23 Y241.78
G1 X89.19 Y241.72
G1 X89.14 Y241.65
G1 X89.09 Y241.59
G1 X89.04 Y241.52
G1 X88.99 Y241.46
G1 X88.94 Y241.40
G1 X88.89 Y241.33
G1 X88.84 Y241.27
G1 X88.79 Y241.21
G1 X88.74 Y241.14
G1 X88.68 Y241.08
G1 X88.63 Y241.02
G1 X88.58 Y240.96
G1 X88.52 Y240.90
G1 X88.47 Y240.84
G1 X88.41 Y240.78
G1 X88.36 Y240.72
G1 X88.30 Y240.66
G1 X88.24 Y240.60
G1 X88.19 Y240.54
G1 X88.13 Y240.49
G1 X88.07 Y240.43
G1 X88.01 Y240.37
G1 X87.95 Y240.32
G1 X87.89 Y240.26
G1 X87.83 Y240.21
G1 X87.77 Y240.15
G1 X87.71 Y240.10
G1 X87.65 Y240.04
G1 X87.59 Y239.99
G1 X87.52 Y239.94
G1 X87.46 Y239.88
G1 X87.40 Y239.83
G1 X87.33 Y239.78
G1 X87.27 Y239.73
G1 X87.20 Y239.68
G1 X87.14 Y239.63
G1 X87.07 Y239.58
G1 X87.00 Y239.53
G1 X86.94 Y239.48
G1 X86.87 Y239.43
G1 X86.80 Y239.39
G1 X86.73 Y239.34
G1 X86.67 Y239.29
G1 X86.60 Y239.25
G1 X86.53 Y239.20
G1 X86.46 Y239.16
G1 X86.39 Y239.11
G1 X86.32 Y239.07
G1 X86.24 Y239.02
G1 X86.17 Y238.98
G1 X86.10 Y238.94
G1 X86.03 Y238.90
G1 X85.95 Y238.86
G1 X85.88 Y238.82
G1 X85.81 Y238.78
G1 X85.73 Y238.74
G1 X85.66 Y238.70
G1 X85.59 Y238.66
G1 X85.51 Y238.63
G1 X85.44 Y238.59
G1 X85.36 Y238.55
G1 X85.29 Y238.52
G1 X85.21 Y238.48
G1 X85.14 Y238.45
G1 X85.06 Y238.42
G1 X84.98 Y238.39
G1 X84.91 Y238.35
G1 X84.83 Y238.32
G1 X84.76 Y238.29
G1 X84.68 Y238.26
G1 X84.60 Y238.23
G1 X84.53 Y238.21
G1 X84.45 Y238.18
G1 X84.37 Y238.15
G1 X84.29 Y238.12
G1 X84.22 Y238.10
G1 X84.14 Y238.07
G1 X84.06 Y238.05
G1 X83.98 Y238.02
G1 X83.90 Y238.00
G1 X83.82 Y237.98
G1 X83.75 Y237.96
G1 X83.67 Y237.94
G1 X83.59 Y237.91
G1 X83.51 Y237.89
G1 X83.43 Y237.88
G1 X83.35 Y237.86
G1 X83.27 Y237.84
G1 X83.19 Y237.82
G1 X83.11 Y237.80
G1 X83.03 Y237.79
G1 X82.95 Y237.77
G1 X82.87 Y237.76
G1 X82.79 Y237.74
G1 X82.71 Y237.73
G1 X82.63 Y237.72
G1 X82.55 Y237.71
G1 X82.47 Y237.69
G1 X82.39 Y237.68
G1 X82.31 Y237.67
G1 X82.23 Y237.66
G1 X82.15 Y237.66
G1 X82.07 Y237.65
G1 X81.99 Y237.64
G1 X81.91 Y237.63
G1 X81.83 Y237.63
G1 X81.75 Y237.62
G1 X81.67 Y237.62
G1 X81.59 Y237.61
G1 X81.50 Y237.61
G1 X81.42 Y237.61
G1 X81.34 Y237.60
G1 X81.26 Y237.60
G1 X81.18 Y237.60
G1 X81.10 Y237.60
G1 X81.02 Y237.60
G1 X80.94 Y237.60
G1 X80.86 Y237.60
G1 X80.78 Y237.61
G1 X80.70 Y237.61
G1 X80.61 Y237.61
G1 X80.53 Y237.62
G1 X80.45 Y237.62
G1 X80.37 Y237.63
G1 X80.29 Y237.63
G1 X80.21 Y237.64
G1 X80.13 Y237.65
G1 X80.05 Y237.66
G1 X79.97 Y237.66
G1 X79.89 Y237.67
G1 X79.81 Y237.68
G1 X79.73 Y237.69
G1 X79.65 Y237.71
G1 X79.57 Y237.72
G1 X79.49 Y237.73
G1 X79.41 Y237.74
G1 X79.33 Y237.76
G1 X79.25 Y237.77
G1 X79.17 Y237.79
G1 X79.09 Y237.80
G1 X79.01 Y237.82
G1 X78.93 Y237.84
G1 X78.85 Y237.86
G1 X78.77 Y237.88
G1 X78.69 Y237.89
G1 X78.61 Y237.91
G1 X78.53 Y237.94
G1 X78.45 Y237.96
G1 X78.38 Y237.98
G1 X78.30 Y238.00
G1 X78.22 Y238.02
G1 X78.14 Y238.05
G1 X78.06 Y238.07
G1 X77.98 Y238.10
G1 X77.91 Y238.12
G1 X77.83 Y238.15
G1 X77.75 Y238.18
G1 X77.67 Y238.21
G1 X77.60 Y238.23
G1 X77.52 Y238.26
G1 X77.44 Y238.29
G1 X77.37 Y238.32
G1 X77.29 Y238.35
G1 X77.21 Y238.39
G1 X77.14 Y238.42
G1 X77.06 Y238.45
G1 X76.99 Y238.48
G1 X76.91 Y238.52
G1 X76.84 Y238.55
G1 X76.76 Y238.59
G1 X76.69 Y238.63
G1 X76.61 Y238.66
G1 X76.54 Y238.70
G1 X76.47 Y238.74
G1 X76.39 Y238.78
G1 X76.32 Y238.82
G1 X76.25 Y238.86
G1 X76.17 Y238.90
G1 X76.10 Y238.94
G1 X76.03 Y238.98
G1 X75.96 Y239.02
G1 X75.88 Y239.07
G1 X75.81 Y239.11
G1 X75.74 Y239.16
G1 X75.67 Y239.20
G1 X75.60 Y239.25
G1 X75.53 Y239.29
G1 X75.47 Y239.34
G1 X75.40 Y239.39
G1 X75.33 Y239.43
G1 X75.26 Y239.48
G1 X75.19 Y239.53
G1 X75.13 Y239.58
G1 X75.06 Y239.63
G1 X75.00 Y239.68
G1 X74.93 Y239.73
G1 X74.87 Y239.78
G1 X74.80 Y239.83
G1 X74.74 Y239.88
G1 X74.68 Y239.94
G1 X74.61 Y239.99
G1 X74.55 Y240.04
G1 X74.49 Y240.10
G1 X74.43 Y240.15
G1 X74.37 Y240.21
G1 X74.31 Y240.26
G1 X74.25 Y240.32
G1 X74.19 Y240.37
G1 X74.13 Y240.43
G1 X74.07 Y240.49
G1 X74.01 Y240.54
G1 X73.96 Y240.60
G1 X73.90 Y240.66
G1 X73.84 Y240.72
G1 X73.79 Y240.78
G1 X73.73 Y240.84
G1 X73.68 Y240.90
G1 X73.62 Y240.96
G1 X73.57 Y241.02
G1 X73.52 Y241.08
G1 X73.46 Y241.14
G1 X73.41 Y241.21
G1 X73.36 Y241.27
G1 X73.31 Y241.33
G1 X73.26 Y241.40
G1 X73.21 Y241.46
G1 X73.16 Y241.52
G1 X73.11 Y241.59
G1 X73.06 Y241.65
G1 X73.01 Y241.72
G1 X72.97 Y241.78
G1 X72.92 Y241.85
G1 X72.87 Y241.92
G1 X72.83 Y241.98
G1 X72.78 Y242.05
G1 X72.74 Y242.12
G1 X72.69 Y242.19
G1 X72.65 Y242.25
G1 X72.61 Y242.32
G1 X72.56 Y242.39
G1 X72.52 Y242.46
G1 X72.48 Y242.53
G1 X72.44 Y242.60
G1 X72.40 Y242.67
G1 X72.36 Y242.74
G1 X72.32 Y242.81
G1 X72.28 Y242.88
G1 X72.24 Y242.95
G1 X72.21 Y243.03
G1 X72.17 Y243.10
G1 X72.13 Y243.17
G1 X72.10 Y243.24
G1 X72.06 Y243.32
G1 X72.03 Y243.39
G1 X72.00 Y243.46
G1 X71.96 Y243.54
G1 X71.93 Y243.61
G1 X71.90 Y243.69
G1 X71.87 Y243.76
G1 X71.84 Y243.84
G1 X71.81 Y243.91
G1 X71.78 Y243.99
G1 X71.75 Y244.06
G1 X71.72 Y244.14
G1 X71.69 Y244.21
G1 X71.66 Y244.29
G1 X71.64 Y244.37
G1 X71.61 Y244.45
G1 X71.59 Y244.52
G1 X71.56 Y244.60
G1 X71.54 Y244.68
G1 X71.51 Y244.76
G1 X71.49 Y244.83
G1 X71.47 Y244.91
G1 X71.45 Y244.99
G1 X71.43 Y245.07
G1 X71.40 Y245.15
G1 X71.39 Y245.23
G1 X71.37 Y245.31
G1 X71.35 Y245.39
G1 X71.33 Y245.47
G1 X71.31 Y245.55
G1 X71.30 Y245.63
G1 X71.28 Y245.71
G1 X71.27 Y245.79
G1 X71.25 Y245.87
G1 X71.24 Y245.95
G1 X71.22 Y246.03
G1 X71.21 Y246.11
G1 X71.20 Y246.19
G1 X71.19 Y246.28
G1 X71.18 Y246.36
G1 X71.17 Y246.44
G1 X71.16 Y246.52
G1 X71.15 Y246.60
G1 X71.14 Y246.69
G1 X71.13 Y246.77
G1 X71.13 Y246.85
G1 X71.12 Y246.93
G1 X71.12 Y247.02
G1 X71.11 Y247.10
G1 X71.11 Y247.18
G1 X71.11 Y247.27
G1 X71.10 Y247.35
G1 X71.10 Y247.43
G1 X71.10 Y247.52
G1 X71.10 Y247.60
G1 X91.10 Y247.60

; Pass 0 Path 94
G0 X76.50 Y258.55
G1 X67.70 Y258.55 S1000.00 F400
G1 X67.70 Y261.65
G1 X76.50 Y261.65
G1 X76.50 Y258.55

; Pass 0 Path 95
G0 X58.50 Y258.55
G1 X49.70 Y258.55 S1000.00 F400
G1 X49.70 Y261.65
G1 X58.50 Y261.65
G1 X58.50 Y258.55

; Pass 0 Path 96
G0 X40.50 Y258.55
G1 X31.70 Y258.55 S1000.00 F400
G1 X31.70 Y261.65
G1 X40.50 Y261.65
G1 X40.50 Y258.55

; Pass 0 Path 97
G0 X22.50 Y258.55
G1 X13.70 Y258.55 S1000.00 F400
G1 X13.70 Y261.65
G1 X22.50 Y261.65
G1 X22.50 Y258.55

; Pass 0 Path 98
G0 X22.50 Y322.45
G1 X13.70 Y322.45 S1000.00 F400
G1 X13.70 Y325.55
G1 X22.50 Y325.55
G1 X22.50 Y322.45

; Pass 0 Path 99
G0 X31.70 Y322.45
G1 X31.70 Y325.55 S1000.00 F400
G1 X40.50 Y325.55
G1 X40.50 Y322.45
G1 X31.70 Y322.45
G1 X31.70 Y322.45

; Pass 0 Path 100
G0 X49.70 Y322.45
G1 X49.70 Y325.55 S1000.00 F400
G1 X58.50 Y325.55
G1 X58.50 Y322.45
G1 X49.70 Y322.45
G1 X49.70 Y322.45

; Pass 0 Path 101
G0 X67.70 Y322.45
G1 X67.70 Y325.55 S1000.00 F400
G1 X76.50 Y325.55
G1 X76.50 Y322.45
G1 X67.70 Y322.45
G1 X67.70 Y322.45

; Pass 0 Path 102
G0 X71.10 Y319.50
G1 X71.10 Y319.50 S1000.00 F400
G1 X91.10 Y319.50
G1 X91.10 Y311.50
G1 X71.10 Y311.50
G1 X71.10 Y319.50
G1 X3.10 Y319.50
G1 X3.10 Y319.50
G1 X3.10 Y319.50
G1 X71.10 Y319.50

; Pass 0 Path 103
G0 X71.10 Y311.50
G1 X91.10 Y311.50 S1000.00 F400
G1 X91.10 Y311.42
G1 X91.10 Y311.33
G1 X91.10 Y311.25
G1 X91.09 Y311.17
G1 X91.09 Y311.08
G1 X91.09 Y311.00
G1 X91.08 Y310.92
G1 X91.08 Y310.83
G1 X91.07 Y310.75
G1 X91.07 Y310.67
G1 X91.06 Y310.59
G1 X91.05 Y310.50
G1 X91.04 Y310.42
G1 X91.03 Y310.34
G1 X91.02 Y310.26
G1 X91.01 Y310.18
G1 X91.00 Y310.09
G1 X90.99 Y310.01
G1 X90.98 Y309.93
G1 X90.96 Y309.85
G1 X90.95 Y309.77
G1 X90.93 Y309.69
G1 X90.92 Y309.61
G1 X90.90 Y309.53
G1 X90.89 Y309.45
G1 X90.87 Y309.37
G1 X90.85 Y309.29
G1 X90.83 Y309.21
G1 X90.81 Y309.13
G1 X90.79 Y309.05
G1 X90.77 Y308.97
G1 X90.75 Y308.89
G1 X90.73 Y308.81
G1 X90.71 Y308.73
G1 X90.69 Y308.66
G1 X90.66 Y308.58
G1 X90.64 Y308.50
G1 X90.61 Y308.42
G1 X90.59 Y308.35
G1 X90.56 Y308.27
G1 X90.54 Y308.19
G1 X90.51 Y308.11
G1 X90.48 Y308.04
G1 X90.45 Y307.96
G1 X90.42 Y307.89
G1 X90.39 Y307.81
G1 X90.36 Y307.74
G1 X90.33 Y307.66
G1 X90.30 Y307.59
G1 X90.27 Y307.51
G1 X90.24 Y307.44
G1 X90.20 Y307.36
G1 X90.17 Y307.29
G1 X90.14 Y307.22
G1 X90.10 Y307.14
G1 X90.07 Y307.07
G1 X90.03 Y307.00
G1 X89.99 Y306.93
G1 X89.96 Y306.85
G1 X89.92 Y306.78
G1 X89.88 Y306.71
G1 X89.84 Y306.64
G1 X89.80 Y306.57
G1 X89.76 Y306.50
G1 X89.72 Y306.43
G1 X89.68 Y306.36
G1 X89.64 Y306.29
G1 X89.59 Y306.22
G1 X89.55 Y306.15
G1 X89.51 Y306.09
G1 X89.46 Y306.02
G1 X89.42 Y305.95
G1 X89.37 Y305.88
G1 X89.33 Y305.82
G1 X89.28 Y305.75
G1 X89.23 Y305.68
G1 X89.19 Y305.62
G1 X89.14 Y305.55
G1 X89.09 Y305.49
G1 X89.04 Y305.42
G1 X88.99 Y305.36
G1 X88.94 Y305.30
G1 X88.89 Y305.23
G1 X88.84 Y305.17
G1 X88.79 Y305.11
G1 X88.74 Y305.04
G1 X88.68 Y304.98
G1 X88.63 Y304.92
G1 X88.58 Y304.86
G1 X88.52 Y304.80
G1 X88.47 Y304.74
G1 X88.41 Y304.68
G1 X88.36 Y304.62
G1 X88.30 Y304.56
G1 X88.24 Y304.50
G1 X88.19 Y304.44
G1 X88.13 Y304.39
G1 X88.07 Y304.33
G1 X88.01 Y304.27
G1 X87.95 Y304.22
G1 X87.89 Y304.16
G1 X87.83 Y304.11
G1 X87.77 Y304.05
G1 X87.71 Y304.00
G1 X87.65 Y303.94
G1 X87.59 Y303.89
G1 X87.52 Y303.84
G1 X87.46 Y303.78
G1 X87.40 Y303.73
G1 X87.33 Y303.68
G1 X87.27 Y303.63
G1 X87.20 Y303.58
G1 X87.14 Y303.53
G1 X87.07 Y303.48
G1 X87.00 Y303.43
G1 X86.94 Y303.38
G1 X86.87 Y303.33
G1 X86.80 Y303.29
G1 X86.73 Y303.24
G1 X86.67 Y303.19
G1 X86.60 Y303.15
G1 X86.53 Y303.10
G1 X86.46 Y303.06
G1 X86.39 Y303.01
G1 X86.32 Y302.97
G1 X86.24 Y302.92
G1 X86.17 Y302.88
G1 X86.10 Y302.84
G1 X86.03 Y302.80
G1 X85.95 Y302.76
G1 X85.88 Y302.72
G1 X85.81 Y302.68
G1 X85.73 Y302.64
G1 X85.66 Y302.60
G1 X85.59 Y302.56
G1 X85.51 Y302.53
G1 X85.44 Y302.49
G1 X85.36 Y302.45
G1 X85.29 Y302.42
G1 X85.21 Y302.38
G1 X85.14 Y302.35
G1 X85.06 Y302.32
G1 X84.98 Y302.29
G1 X84.91 Y302.25
G1 X84.83 Y302.22
G1 X84.76 Y302.19
G1 X84.68 Y302.16
G1 X84.60 Y302.13
G1 X84.53 Y302.11
G1 X84.45 Y302.08
G1 X84.37 Y302.05
G1 X84.29 Y302.02
G1 X84.22 Y302.00
G1 X84.14 Y301.97
G1 X84.06 Y301.95
G1 X83.98 Y301.92
G1 X83.90 Y301.90
G1 X83.82 Y301.88
G1 X83.75 Y301.86
G1 X83.67 Y301.84
G1 X83.59 Y301.81
G1 X83.51 Y301.79
G1 X83.43 Y301.78
G1 X83.35 Y301.76
G1 X83.27 Y301.74
G1 X83.19 Y301.72
G1 X83.11 Y301.70
G1 X83.03 Y301.69
G1 X82.95 Y301.67
G1 X82.87 Y301.66
G1 X82.79 Y301.64
G1 X82.71 Y301.63
G1 X82.63 Y301.62
G1 X82.55 Y301.61
G1 X82.47 Y301.59
G1 X82.39 Y301.58
G1 X82.31 Y301.57
G1 X82.23 Y301.56
G1 X82.15 Y301.56
G1 X82.07 Y301.55
G1 X81.99 Y301.54
G1 X81.91 Y301.53
G1 X81.83 Y301.53
G1 X81.75 Y301.52
G1 X81.67 Y301.52
G1 X81.59 Y301.51
G1 X81.50 Y301.51
G1 X81.42 Y301.51
G1 X81.34 Y301.50
G1 X81.26 Y301.50
G1 X81.18 Y301.50
G1 X81.10 Y301.50
G1 X81.02 Y301.50
G1 X80.94 Y301.50
G1 X80.86 Y301.50
G1 X80.78 Y301.51
G1 X80.70 Y301.51
G1 X80.61 Y301.51
G1 X80.53 Y301.52
G1 X80.45 Y301.52
G1 X80.37 Y301.53
G1 X80.29 Y301.53
G1 X80.21 Y301.54
G1 X80.13 Y301.55
G1 X80.05 Y301.56
G1 X79.97 Y301.56
G1 X79.89 Y301.57
G1 X79.81 Y301.58
G1 X79.73 Y301.59
G1 X79.65 Y301.61
G1 X79.57 Y301.62
G1 X79.49 Y301.63
G1 X79.41 Y301.64
G1 X79.33 Y301.66
G1 X79.25 Y301.67
G1 X79.17 Y301.69
G1 X79.09 Y301.70
G1 X79.01 Y301.72
G1 X78.93 Y301.74
G1 X78.85 Y301.76
G1 X78.77 Y301.78
G1 X78.69 Y301.79
G1 X78.61 Y301.81
G1 X78.53 Y301.84
G1 X78.45 Y301.86
G1 X78.38 Y301.88
G1 X78.30 Y301.90
G1 X78.22 Y301.92
G1 X78.14 Y301.95
G1 X78.06 Y301.97
G1 X77.98 Y302.00
G1 X77.91 Y302.02
G1 X77.83 Y302.05
G1 X77.75 Y302.08
G1 X77.67 Y302.11
G1 X77.60 Y302.13
G1 X77.52 Y302.16
G1 X77.44 Y302.19
G1 X77.37 Y302.22
G1 X77.29 Y302.25
G1 X77.21 Y302.29
G1 X77.14 Y302.32
G1 X77.06 Y302.35
G1 X76.99 Y302.38
G1 X76.91 Y302.42
G1 X76.84 Y302.45
G1 X76.76 Y302.49
G1 X76.69 Y302.53
G1 X76.61 Y302.56
G1 X76.54 Y302.60
G1 X76.47 Y302.64
G1 X76.39 Y302.68
G1 X76.32 Y302.72
G1 X76.25 Y302.76
G1 X76.17 Y302.80
G1 X76.10 Y302.84
G1 X76.03 Y302.88
G1 X75.96 Y302.92
G1 X75.88 Y302.97
G1 X75.81 Y303.01
G1 X75.74 Y303.06
G1 X75.67 Y303.10
G1 X75.60 Y303.15
G1 X75.53 Y303.19
G1 X75.47 Y303.24
G1 X75.40 Y303.29
G1 X75.33 Y303.33
G1 X75.26 Y303.38
G1 X75.19 Y303.43
G1 X75.13 Y303.48
G1 X75.06 Y303.53
G1 X75.00 Y303.58
G1 X74.93 Y303.63
G1 X74.87 Y303.68
G1 X74.80 Y303.73
G1 X74.74 Y303.78
G1 X74.68 Y303.84
G1 X74.61 Y303.89
G1 X74.55 Y303.94
G1 X74.49 Y304.00
G1 X74.43 Y304.05
G1 X74.37 Y304.11
G1 X74.31 Y304.16
G1 X74.25 Y304.22
G1 X74.19 Y304.27
G1 X74.13 Y304.33
G1 X74.07 Y304.39
G1 X74.01 Y304.44
G1 X73.96 Y304.50
G1 X73.90 Y304.56
G1 X73.84 Y304.62
G1 X73.79 Y304.68
G1 X73.73 Y304.74
G1 X73.68 Y304.80
G1 X73.62 Y304.86
G1 X73.57 Y304.92
G1 X73.52 Y304.98
G1 X73.46 Y305.04
G1 X73.41 Y305.11
G1 X73.36 Y305.17
G1 X73.31 Y305.23
G1 X73.26 Y305.30
G1 X73.21 Y305.36
G1 X73.16 Y305.42
G1 X73.11 Y305.49
G1 X73.06 Y305.55
G1 X73.01 Y305.62
G1 X72.97 Y305.68
G1 X72.92 Y305.75
G1 X72.87 Y305.82
G1 X72.83 Y305.88
G1 X72.78 Y305.95
G1 X72.74 Y306.02
G1 X72.69 Y306.09
G1 X72.65 Y306.15
G1 X72.61 Y306.22
G1 X72.56 Y306.29
G1 X72.52 Y306.36
G1 X72.48 Y306.43
G1 X72.44 Y306.50
G1 X72.40 Y306.57
G1 X72.36 Y306.64
G1 X72.32 Y306.71
G1 X72.28 Y306.78
G1 X72.24 Y306.85
G1 X72.21 Y306.93
G1 X72.17 Y307.00
G1 X72.13 Y307.07
G1 X72.10 Y307.14
G1 X72.06 Y307.22
G1 X72.03 Y307.29
G1 X72.00 Y307.36
G1 X71.96 Y307.44
G1 X71.93 Y307.51
G1 X71.90 Y307.59
G1 X71.87 Y307.66
G1 X71.84 Y307.74
G1 X71.81 Y307.81
G1 X71.78 Y307.89
G1 X71.75 Y307.96
G1 X71.72 Y308.04
G1 X71.69 Y308.11
G1 X71.66 Y308.19
G1 X71.64 Y308.27
G1 X71.61 Y308.35
G1 X71.59 Y308.42
G1 X71.56 Y308.50
G1 X71.54 Y308.58
G1 X71.51 Y308.66
G1 X71.49 Y308.73
G1 X71.47 Y308.81
G1 X71.45 Y308.89
G1 X71.43 Y308.97
G1 X71.40 Y309.05
G1 X71.39 Y309.13
G1 X71.37 Y309.21
G1 X71.35 Y309.29
G1 X71.33 Y309.37
G1 X71.31 Y309.45
G1 X71.30 Y309.53
G1 X71.28 Y309.61
G1 X71.27 Y309.69
G1 X71.25 Y309.77
G1 X71.24 Y309.85
G1 X71.22 Y309.93
G1 X71.21 Y310.01
G1 X71.20 Y310.09
G1 X71.19 Y310.18
G1 X71.18 Y310.26
G1 X71.17 Y310.34
G1 X71.16 Y310.42
G1 X71.15 Y310.50
G1 X71.14 Y310.59
G1 X71.13 Y310.67
G1 X71.13 Y310.75
G1 X71.12 Y310.83
G1 X71.12 Y310.92
G1 X71.11 Y311.00
G1 X71.11 Y311.08
G1 X71.11 Y311.17
G1 X71.10 Y311.25
G1 X71.10 Y311.33
G1 X71.10 Y311.42
G1 X71.10 Y311.50

; Pass 0 Path 104
G0 X85.70 Y322.45
G1 X85.70 Y325.55 S1000.00 F400
G1 X94.50 Y325.55
G1 X94.50 Y322.45
G1 X85.70 Y322.45
G1 X85.70 Y322.45

; Pass 0 Path 105
G0 X91.10 Y319.50
G1 X159.10 Y319.50 S1000.00 F400
G1 X159.10 Y319.50
G1 X159.10 Y319.50
G1 X91.10 Y319.50
G1 X91.10 Y319.50

; Pass 0 Path 106
G0 X103.70 Y322.45
G1 X103.70 Y325.55 S1000.00 F400
G1 X112.50 Y325.55
G1 X112.50 Y322.45
G1 X103.70 Y322.45
G1 X103.70 Y322.45

; Pass 0 Path 107
G0 X121.70 Y322.45
G1 X121.70 Y325.55 S1000.00 F400
G1 X130.50 Y325.55
G1 X130.50 Y322.45
G1 X121.70 Y322.45
G1 X121.70 Y322.45

; Pass 0 Path 108
G0 X139.70 Y322.45
G1 X139.70 Y325.55 S1000.00 F400
G1 X148.50 Y325.55
G1 X148.50 Y322.45
G1 X139.70 Y322.45
G1 X139.70 Y322.45

; Pass 0 Path 109
G0 X165.30 Y319.50
G1 X165.30 Y319.50 S1000.00 F400
G1 X321.30 Y319.50
G1 X321.30 Y319.50
G1 X321.30 Y319.50
G1 X165.30 Y319.50
G1 X165.30 Y319.50

; Pass 0 Path 110
G0 X175.90 Y322.45
G1 X175.90 Y325.55 S1000.00 F400
G1 X184.70 Y325.55
G1 X184.70 Y322.45
G1 X175.90 Y322.45
G1 X175.90 Y322.45

; Pass 0 Path 111
G0 X193.90 Y322.45
G1 X193.90 Y325.55 S1000.00 F400
G1 X202.70 Y325.55
G1 X202.70 Y322.45
G1 X193.90 Y322.45
G1 X193.90 Y322.45

; Pass 0 Path 112
G0 X211.90 Y322.45
G1 X211.90 Y325.55 S1000.00 F400
G1 X220.70 Y325.55
G1 X220.70 Y322.45
G1 X211.90 Y322.45
G1 X211.90 Y322.45

; Pass 0 Path 113
G0 X229.90 Y322.45
G1 X229.90 Y325.55 S1000.00 F400
G1 X238.70 Y325.55
G1 X238.70 Y322.45
G1 X229.90 Y322.45
G1 X229.90 Y322.45

; Pass 0 Path 114
G0 X247.90 Y322.45
G1 X247.90 Y325.55 S1000.00 F400
G1 X256.70 Y325.55
G1 X256.70 Y322.45
G1 X247.90 Y322.45
G1 X247.90 Y322.45

; Pass 0 Path 115
G0 X265.90 Y322.45
G1 X265.90 Y325.55 S1000.00 F400
G1 X274.70 Y325.55
G1 X274.70 Y322.45
G1 X265.90 Y322.45
G1 X265.90 Y322.45

; Pass 0 Path 116
G0 X283.90 Y322.45
G1 X283.90 Y325.55 S1000.00 F400
G1 X292.70 Y325.55
G1 X292.70 Y322.45
G1 X283.90 Y322.45
G1 X283.90 Y322.45

; Pass 0 Path 117
G0 X301.90 Y322.45
G1 X301.90 Y325.55 S1000.00 F400
G1 X310.70 Y325.55
G1 X310.70 Y322.45
G1 X301.90 Y322.45
G1 X301.90 Y322.45

; Pass 0 Path 118
G0 X90.83 Y373.11
G1 X90.81 Y373.03 S1000.00 F400
G1 X90.79 Y372.95
G1 X90.77 Y372.87
G1 X90.75 Y372.79
G1 X90.73 Y372.71
G1 X90.71 Y372.63
G1 X90.69 Y372.56
G1 X90.66 Y372.48
G1 X90.64 Y372.40
G1 X90.61 Y372.32
G1 X90.59 Y372.25
G1 X90.56 Y372.17
G1 X90.54 Y372.09
G1 X90.51 Y372.01
G1 X90.48 Y371.94
G1 X90.45 Y371.86
G1 X90.42 Y371.79
G1 X90.39 Y371.71
G1 X90.36 Y371.64
G1 X90.33 Y371.56
G1 X90.30 Y371.49
G1 X90.27 Y371.41
G1 X90.24 Y371.34
G1 X90.20 Y371.26
G1 X90.17 Y371.19
G1 X90.14 Y371.12
G1 X90.10 Y371.04
G1 X90.07 Y370.97
G1 X90.03 Y370.90
G1 X89.99 Y370.83
G1 X89.96 Y370.75
G1 X89.92 Y370.68
G1 X89.88 Y370.61
G1 X89.84 Y370.54
G1 X89.80 Y370.47
G1 X89.76 Y370.40
G1 X89.72 Y370.33
G1 X89.68 Y370.26
G1 X89.64 Y370.19
G1 X89.59 Y370.12
G1 X89.55 Y370.05
G1 X89.51 Y369.99
G1 X89.46 Y369.92
G1 X89.42 Y369.85
G1 X89.37 Y369.78
G1 X89.33 Y369.72
G1 X89.28 Y369.65
G1 X89.23 Y369.58
G1 X89.19 Y369.52
G1 X89.14 Y369.45
G1 X89.09 Y369.39
G1 X89.04 Y369.32
G1 X88.99 Y369.26
G1 X88.94 Y369.20
G1 X88.89 Y369.13
G1 X88.84 Y369.07
G1 X88.79 Y369.01
G1 X88.74 Y368.94
G1 X88.68 Y368.88
G1 X88.63 Y368.82
G1 X88.58 Y368.76
G1 X88.52 Y368.70
G1 X88.47 Y368.64
G1 X88.41 Y368.58
G1 X88.36 Y368.52
G1 X88.30 Y368.46
G1 X88.24 Y368.40
G1 X88.19 Y368.34
G1 X88.13 Y368.29
G1 X88.07 Y368.23
G1 X88.01 Y368.17
G1 X87.95 Y368.12
G1 X87.89 Y368.06
G1 X87.83 Y368.01
G1 X87.77 Y367.95
G1 X87.71 Y367.90
G1 X87.65 Y367.84
G1 X87.59 Y367.79
G1 X87.52 Y367.74
G1 X87.46 Y367.68
G1 X87.40 Y367.63
G1 X87.33 Y367.58
G1 X87.27 Y367.53
G1 X87.20 Y367.48
G1 X87.14 Y367.43
G1 X87.07 Y367.38
G1 X87.00 Y367.33
G1 X86.94 Y367.28
G1 X86.87 Y367.23
G1 X86.80 Y367.19
G1 X86.73 Y367.14
G1 X86.67 Y367.09
G1 X86.60 Y367.05
G1 X86.53 Y367.00
G1 X86.46 Y366.96
G1 X86.39 Y366.91
G1 X86.32 Y366.87
G1 X86.24 Y366.82
G1 X86.17 Y366.78
G1 X86.10 Y366.74
G1 X86.03 Y366.70
G1 X85.95 Y366.66
G1 X85.88 Y366.62
G1 X85.81 Y366.58
G1 X85.73 Y366.54
G1 X85.66 Y366.50
G1 X85.59 Y366.46
G1 X85.51 Y366.43
G1 X85.44 Y366.39
G1 X85.36 Y366.35
G1 X85.29 Y366.32
G1 X85.21 Y366.28
G1 X85.14 Y366.25
G1 X85.06 Y366.22
G1 X84.98 Y366.19
G1 X84.91 Y366.15
G1 X84.83 Y366.12
G1 X84.76 Y366.09
G1 X84.68 Y366.06
G1 X84.60 Y366.03
G1 X84.53 Y366.01
G1 X84.45 Y365.98
G1 X84.37 Y365.95
G1 X84.29 Y365.92
G1 X84.22 Y365.90
G1 X84.14 Y365.87
G1 X84.06 Y365.85
G1 X83.98 Y365.82
G1 X83.90 Y365.80
G1 X83.82 Y365.78
G1 X83.75 Y365.76
G1 X83.67 Y365.74
G1 X83.59 Y365.71
G1 X83.51 Y365.69
G1 X83.43 Y365.68
G1 X83.35 Y365.66
G1 X83.27 Y365.64
G1 X83.19 Y365.62
G1 X83.11 Y365.60
G1 X83.03 Y365.59
G1 X82.95 Y365.57
G1 X82.87 Y365.56
G1 X82.79 Y365.54
G1 X82.71 Y365.53
G1 X82.63 Y365.52
G1 X82.55 Y365.51
G1 X82.47 Y365.49
G1 X82.39 Y365.48
G1 X82.31 Y365.47
G1 X82.23 Y365.46
G1 X82.15 Y365.46
G1 X82.07 Y365.45
G1 X81.99 Y365.44
G1 X81.91 Y365.43
G1 X81.83 Y365.43
G1 X81.75 Y365.42
G1 X81.67 Y365.42
G1 X81.59 Y365.41
G1 X81.50 Y365.41
G1 X81.42 Y365.41
G1 X81.34 Y365.40
G1 X81.26 Y365.40
G1 X81.18 Y365.40
G1 X81.10 Y365.40
G1 X81.02 Y365.40
G1 X80.94 Y365.40
G1 X80.86 Y365.40
G1 X80.78 Y365.41
G1 X80.70 Y365.41
G1 X80.61 Y365.41
G1 X80.53 Y365.42
G1 X80.45 Y365.42
G1 X80.37 Y365.43
G1 X80.29 Y365.43
G1 X80.21 Y365.44
G1 X80.13 Y365.45
G1 X80.05 Y365.46
G1 X79.97 Y365.46
G1 X79.89 Y365.47
G1 X79.81 Y365.48
G1 X79.73 Y365.49
G1 X79.65 Y365.51
G1 X79.57 Y365.52
G1 X79.49 Y365.53
G1 X79.41 Y365.54
G1 X79.33 Y365.56
G1 X79.25 Y365.57
G1 X79.17 Y365.59
G1 X79.09 Y365.60
G1 X79.01 Y365.62
G1 X78.93 Y365.64
G1 X78.85 Y365.66
G1 X78.77 Y365.68
G1 X78.69 Y365.69
G1 X78.61 Y365.71
G1 X78.53 Y365.74
G1 X78.45 Y365.76
G1 X78.38 Y365.78
G1 X78.30 Y365.80
G1 X78.22 Y365.82
G1 X78.14 Y365.85
G1 X78.06 Y365.87
G1 X77.98 Y365.90
G1 X77.91 Y365.92
G1 X77.83 Y365.95
G1 X77.75 Y365.98
G1 X77.67 Y366.01
G1 X77.60 Y366.03
G1 X77.52 Y366.06
G1 X77.44 Y366.09
G1 X77.37 Y366.12
G1 X77.29 Y366.15
G1 X77.21 Y366.19
G1 X77.14 Y366.22
G1 X77.06 Y366.25
G1 X76.99 Y366.28
G1 X76.91 Y366.32
G1 X76.84 Y366.35
G1 X76.76 Y366.39
G1 X76.69 Y366.43
G1 X76.61 Y366.46
G1 X76.54 Y366.50
G1 X76.47 Y366.54
G1 X76.39 Y366.58
G1 X76.32 Y366.62
G1 X76.25 Y366.66
G1 X76.17 Y366.70
G1 X76.10 Y366.74
G1 X76.03 Y366.78
G1 X75.96 Y366.82
G1 X75.88 Y366.87
G1 X75.81 Y366.91
G1 X75.74 Y366.96
G1 X75.67 Y367.00
G1 X75.60 Y367.05
G1 X75.53 Y367.09
G1 X75.47 Y367.14
G1 X75.40 Y367.19
G1 X75.33 Y367.23
G1 X75.26 Y367.28
G1 X75.19 Y367.33
G1 X75.13 Y367.38
G1 X75.06 Y367.43
G1 X75.00 Y367.48
G1 X74.93 Y367.53
G1 X74.87 Y367.58
G1 X74.80 Y367.63
G1 X74.74 Y367.68
G1 X74.68 Y367.74
G1 X74.61 Y367.79
G1 X74.55 Y367.84
G1 X74.49 Y367.90
G1 X74.43 Y367.95
G1 X74.37 Y368.01
G1 X74.31 Y368.06
G1 X74.25 Y368.12
G1 X74.19 Y368.17
G1 X74.13 Y368.23
G1 X74.07 Y368.29
G1 X74.01 Y368.34
G1 X73.96 Y368.40
G1 X73.90 Y368.46
G1 X73.84 Y368.52
G1 X73.79 Y368.58
G1 X73.73 Y368.64
G1 X73.68 Y368.70
G1 X73.62 Y368.76
G1 X73.57 Y368.82
G1 X73.52 Y368.88
G1 X73.46 Y368.94
G1 X73.41 Y369.01
G1 X73.36 Y369.07
G1 X73.31 Y369.13
G1 X73.26 Y369.20
G1 X73.21 Y369.26
G1 X73.16 Y369.32
G1 X73.11 Y369.39
G1 X73.06 Y369.45
G1 X73.01 Y369.52
G1 X72.97 Y369.58
G1 X72.92 Y369.65
G1 X72.87 Y369.72
G1 X72.83 Y369.78
G1 X72.78 Y369.85
G1 X72.74 Y369.92
G1 X72.69 Y369.99
G1 X72.65 Y370.05
G1 X72.61 Y370.12
G1 X72.56 Y370.19
G1 X72.52 Y370.26
G1 X72.48 Y370.33
G1 X72.44 Y370.40
G1 X72.40 Y370.47
G1 X72.36 Y370.54
G1 X72.32 Y370.61
G1 X72.28 Y370.68
G1 X72.24 Y370.75
G1 X72.21 Y370.83
G1 X72.17 Y370.90
G1 X72.13 Y370.97
G1 X72.10 Y371.04
G1 X72.06 Y371.12
G1 X72.03 Y371.19
G1 X72.00 Y371.26
G1 X71.96 Y371.34
G1 X71.93 Y371.41
G1 X71.90 Y371.49
G1 X71.87 Y371.56
G1 X71.84 Y371.64
G1 X71.81 Y371.71
G1 X71.78 Y371.79
G1 X71.75 Y371.86
G1 X71.72 Y371.94
G1 X71.69 Y372.01
G1 X71.66 Y372.09
G1 X71.64 Y372.17
G1 X71.61 Y372.25
G1 X71.59 Y372.32
G1 X71.56 Y372.40
G1 X71.54 Y372.48
G1 X71.51 Y372.56
G1 X71.49 Y372.63
G1 X71.47 Y372.71
G1 X71.45 Y372.79
G1 X71.43 Y372.87
G1 X71.40 Y372.95
G1 X71.39 Y373.03
G1 X71.37 Y373.11
G1 X71.35 Y373.19
G1 X71.33 Y373.27
G1 X71.31 Y373.35
G1 X71.30 Y373.43
G1 X71.28 Y373.51
G1 X71.27 Y373.59
G1 X71.25 Y373.67
G1 X71.24 Y373.75
G1 X71.22 Y373.83
G1 X71.21 Y373.91
G1 X71.20 Y373.99
G1 X71.19 Y374.08
G1 X71.18 Y374.16
G1 X71.17 Y374.24
G1 X71.16 Y374.32
G1 X71.15 Y374.40
G1 X71.14 Y374.49
G1 X71.13 Y374.57
G1 X71.13 Y374.65
G1 X71.12 Y374.73
G1 X71.12 Y374.82
G1 X71.11 Y374.90
G1 X71.11 Y374.98
G1 X71.11 Y375.07
G1 X71.10 Y375.15
G1 X71.10 Y375.23
G1 X71.10 Y375.32
G1 X71.10 Y375.40
G1 X91.10 Y375.40
G1 X91.10 Y375.32
G1 X91.10 Y375.23
G1 X91.10 Y375.15
G1 X91.09 Y375.07
G1 X91.09 Y374.98
G1 X91.09 Y374.90
G1 X91.08 Y374.82
G1 X91.08 Y374.73
G1 X91.07 Y374.65
G1 X91.07 Y374.57
G1 X91.06 Y374.49
G1 X91.05 Y374.40
G1 X91.04 Y374.32
G1 X91.03 Y374.24
G1 X91.02 Y374.16
G1 X91.01 Y374.08
G1 X91.00 Y373.99
G1 X90.99 Y373.91
G1 X90.98 Y373.83
G1 X90.96 Y373.75
G1 X90.95 Y373.67
G1 X90.93 Y373.59
G1 X90.92 Y373.51
G1 X90.90 Y373.43
G1 X90.89 Y373.35
G1 X90.87 Y373.27
G1 X90.85 Y373.19
G1 X90.83 Y373.11


; Pass 1

; Pass 1 Path 0
G0 X321.37 Y0.03
G1 X321.40 Y0.10 S1000.00 F400
G1 X321.40 Y9.30
G1 X324.30 Y9.30
G1 X324.37 Y9.33
G1 X324.40 Y9.40
G1 X324.40 Y18.40
G1 X324.37 Y18.47
G1 X324.30 Y18.50
G1 X321.40 Y18.50
G1 X321.40 Y27.30
G1 X324.30 Y27.30
G1 X324.37 Y27.33
G1 X324.40 Y27.40
G1 X324.40 Y36.40
G1 X324.37 Y36.47
G1 X324.30 Y36.50
G1 X321.40 Y36.50
G1 X321.40 Y45.30
G1 X324.30 Y45.30
G1 X324.37 Y45.33
G1 X324.40 Y45.40
G1 X324.40 Y54.40
G1 X324.37 Y54.47
G1 X324.30 Y54.50
G1 X321.40 Y54.50
G1 X321.40 Y63.80
G1 X321.37 Y63.87
G1 X321.30 Y63.90
G1 X321.37 Y63.93
G1 X321.40 Y64.00
G1 X321.40 Y73.20
G1 X324.30 Y73.20
G1 X324.37 Y73.23
G1 X324.40 Y73.30
G1 X324.40 Y82.30
G1 X324.37 Y82.37
G1 X324.30 Y82.40
G1 X321.40 Y82.40
G1 X321.40 Y91.20
G1 X324.30 Y91.20
G1 X324.37 Y91.23
G1 X324.40 Y91.30
G1 X324.40 Y100.30
G1 X324.37 Y100.37
G1 X324.30 Y100.40
G1 X321.40 Y100.40
G1 X321.40 Y109.20
G1 X324.30 Y109.20
G1 X324.37 Y109.23
G1 X324.40 Y109.30
G1 X324.40 Y118.30
G1 X324.37 Y118.37
G1 X324.30 Y118.40
G1 X321.40 Y118.40
G1 X321.40 Y127.70
G1 X321.37 Y127.77
G1 X321.30 Y127.80
G1 X321.37 Y127.83
G1 X321.40 Y127.90
G1 X321.40 Y137.10
G1 X324.30 Y137.10
G1 X324.37 Y137.13
G1 X324.40 Y137.20
G1 X324.40 Y146.20
G1 X324.37 Y146.27
G1 X324.30 Y146.30
G1 X321.40 Y146.30
G1 X321.40 Y155.10
G1 X324.30 Y155.10
G1 X324.37 Y155.13
G1 X324.40 Y155.20
G1 X324.40 Y164.20
G1 X324.37 Y164.27
G1 X324.30 Y164.30
G1 X321.40 Y164.30
G1 X321.40 Y173.10
G1 X324.30 Y173.10
G1 X324.37 Y173.13
G1 X324.40 Y173.20
G1 X324.40 Y182.20
G1 X324.37 Y182.27
G1 X324.30 Y182.30
G1 X321.40 Y182.30
G1 X321.40 Y191.60
G1 X321.37 Y191.67
G1 X321.30 Y191.70
G1 X321.37 Y191.73
G1 X321.40 Y191.80
G1 X321.40 Y201.00
G1 X324.30 Y201.00
G1 X324.37 Y201.03
G1 X324.40 Y201.10
G1 X324.40 Y210.10
G1 X324.37 Y210.17
G1 X324.30 Y210.20
G1 X321.40 Y210.20
G1 X321.40 Y219.00
G1 X324.30 Y219.00
G1 X324.37 Y219.03
G1 X324.40 Y219.10
G1 X324.40 Y228.10
G1 X324.37 Y228.17
G1 X324.30 Y228.20
G1 X321.40 Y228.20
G1 X321.40 Y237.00
G1 X324.30 Y237.00
G1 X324.37 Y237.03
G1 X324.40 Y237.10
G1 X324.40 Y246.10
G1 X324.37 Y246.17
G1 X324.30 Y246.20
G1 X321.40 Y246.20
G1 X321.40 Y255.50
G1 X321.37 Y255.57
G1 X321.30 Y255.60
G1 X321.37 Y255.63
G1 X321.40 Y255.70
G1 X321.40 Y264.90
G1 X324.30 Y264.90
G1 X324.37 Y264.93
G1 X324.40 Y265.00
G1 X324.40 Y274.00
G1 X324.37 Y274.07
G1 X324.30 Y274.10
G1 X321.40 Y274.10
G1 X321.40 Y282.90
G1 X324.30 Y282.90
G1 X324.37 Y282.93
G1 X324.40 Y283.00
G1 X324.40 Y292.00
G1 X324.37 Y292.07
G1 X324.30 Y292.10
G1 X321.40 Y292.10
G1 X321.40 Y300.90
G1 X324.30 Y300.90
G1 X324.37 Y300.93
G1 X324.40 Y301.00
G1 X324.40 Y310.00
G1 X324.37 Y310.07
G1 X324.30 Y310.10
G1 X321.40 Y310.10
G1 X321.40 Y319.40
G1 X321.37 Y319.47
G1 X321.30 Y319.50
G1 X321.37 Y319.53
G1 X321.40 Y319.60
G1 X321.40 Y328.80
G1 X324.30 Y328.80
G1 X324.37 Y328.83
G1 X324.40 Y328.90
G1 X324.40 Y337.90
G1 X324.37 Y337.97
G1 X324.30 Y338.00
G1 X321.40 Y338.00
G1 X321.40 Y346.80
G1 X324.30 Y346.80
G1 X324.37 Y346.83
G1 X324.40 Y346.90
G1 X324.40 Y355.90
G1 X324.37 Y355.97
G1 X324.30 Y356.00
G1 X321.40 Y356.00
G1 X321.40 Y364.80
G1 X324.30 Y364.80
G1 X324.37 Y364.83
G1 X324.40 Y364.90
G1 X324.40 Y373.90
G1 X324.37 Y373.97
G1 X324.30 Y374.00
G1 X321.40 Y374.00
G1 X321.40 Y383.30
G1 X321.37 Y383.37
G1 X321.30 Y383.40
G1 X165.30 Y383.40
G1 X165.23 Y383.37
G1 X165.20 Y383.30
G1 X165.20 Y374.00
G1 X162.30 Y374.00
G1 X162.23 Y373.97
G1 X162.20 Y373.90
G1 X162.20 Y364.90
G1 X162.23 Y364.83
G1 X162.30 Y364.80
G1 X165.20 Y364.80
G1 X165.20 Y356.00
G1 X162.30 Y356.00
G1 X162.23 Y355.97
G1 X162.20 Y355.90
G1 X162.20 Y346.90
G1 X162.23 Y346.83
G1 X162.30 Y346.80
G1 X165.20 Y346.80
G1 X165.20 Y338.00
G1 X162.30 Y338.00
G1 X162.23 Y337.97
G1 X162.20 Y337.90
G1 X162.20 Y328.90
G1 X162.23 Y328.83
G1 X162.30 Y328.80
G1 X165.20 Y328.80
G1 X165.20 Y319.60
G1 X165.23 Y319.53
G1 X165.30 Y319.50
G1 X165.23 Y319.47
G1 X165.20 Y319.40
G1 X165.20 Y310.10
G1 X162.30 Y310.10
G1 X162.23 Y310.07
G1 X162.20 Y310.00
G1 X162.20 Y301.00
G1 X162.23 Y300.93
G1 X162.30 Y300.90
G1 X165.20 Y300.90
G1 X165.20 Y292.10
G1 X162.30 Y292.10
G1 X162.23 Y292.07
G1 X162.20 Y292.00
G1 X162.20 Y283.00
G1 X162.23 Y282.93
G1 X162.30 Y282.90
G1 X165.20 Y282.90
G1 X165.20 Y274.10
G1 X162.30 Y274.10
G1 X162.23 Y274.07
G1 X162.20 Y274.00
G1 X162.20 Y265.00
G1 X162.23 Y264.93
G1 X162.30 Y264.90
G1 X165.20 Y264.90
G1 X165.20 Y255.70
G1 X165.23 Y255.63
G1 X165.30 Y255.60
G1 X165.23 Y255.57
G1 X165.20 Y255.50
G1 X165.20 Y246.20
G1 X162.30 Y246.20
G1 X162.23 Y246.17
G1 X162.20 Y246.10
G1 X162.20 Y237.10
G1 X162.23 Y237.03
G1 X162.30 Y237.00
G1 X165.20 Y237.00
G1 X165.20 Y228.20
G1 X162.30 Y228.20
G1 X162.23 Y228.17
G1 X162.20 Y228.10
G1 X162.20 Y219.10
G1 X162.23 Y219.03
G1 X162.30 Y219.00
G1 X165.20 Y219.00
G1 X165.20 Y210.20
G1 X162.30 Y210.20
G1 X162.23 Y210.17
G1 X162.20 Y210.10
G1 X162.20 Y201.10
G1 X162.23 Y201.03
G1 X162.30 Y201.00
G1 X165.20 Y201.00
G1 X165.20 Y191.80
G1 X165.23 Y191.73
G1 X165.30 Y191.70
G1 X165.23 Y191.67
G1 X165.20 Y191.60
G1 X165.20 Y182.30
G1 X162.30 Y182.30
G1 X162.23 Y182.27
G1 X162.20 Y182.20
G1 X162.20 Y173.20
G1 X162.23 Y173.13
G1 X162.30 Y173.10
G1 X165.20 Y173.10
G1 X165.20 Y164.30
G1 X162.30 Y164.30
G1 X162.23 Y164.27
G1 X162.20 Y164.20
G1 X162.20 Y155.20
G1 X162.23 Y155.13
G1 X162.30 Y155.10
G1 X165.20 Y155.10
G1 X165.20 Y146.30
G1 X162.30 Y146.30
G1 X162.23 Y146.27
G1 X162.20 Y146.20
G1 X162.20 Y137.20
G1 X162.23 Y137.13
G1 X162.30 Y137.10
G1 X165.20 Y137.10
G1 X165.20 Y127.90
G1 X165.23 Y127.83
G1 X165.30 Y127.80
G1 X165.23 Y127.77
G1 X165.20 Y127.70
G1 X165.20 Y118.40
G1 X162.30 Y118.40
G1 X162.23 Y118.37
G1 X162.20 Y118.30
G1 X162.20 Y109.30
G1 X162.23 Y109.23
G1 X162.30 Y109.20
G1 X165.20 Y109.20
G1 X165.20 Y100.40
G1 X162.30 Y100.40
G1 X162.23 Y100.37
G1 X162.20 Y100.30
G1 X162.20 Y91.30
G1 X162.23 Y91.23
G1 X162.30 Y91.20
G1 X165.20 Y91.20
G1 X165.20 Y82.40
G1 X162.30 Y82.40
G1 X162.23 Y82.37
G1 X162.20 Y82.30
G1 X162.20 Y73.30
G1 X162.23 Y73.23
G1 X162.30 Y73.20
G1 X165.20 Y73.20
G1 X165.20 Y64.00
G1 X165.23 Y63.93
G1 X165.30 Y63.90
G1 X165.23 Y63.87
G1 X165.20 Y63.80
G1 X165.20 Y54.50
G1 X162.30 Y54.50
G1 X162.23 Y54.47
G1 X162.20 Y54.40
G1 X162.20 Y45.40
G1 X162.23 Y45.33
G1 X162.30 Y45.30
G1 X165.20 Y45.30
G1 X165.20 Y36.50
G1 X162.30 Y36.50
G1 X162.23 Y36.47
G1 X162.20 Y36.40
G1 X162.20 Y27.40
G1 X162.23 Y27.33
G1 X162.30 Y27.30
G1 X165.20 Y27.30
G1 X165.20 Y18.50
G1 X162.30 Y18.50
G1 X162.23 Y18.47
G1 X162.20 Y18.40
G1 X162.20 Y9.40
G1 X162.23 Y9.33
G1 X162.30 Y9.30
G1 X165.20 Y9.30
G1 X165.20 Y0.10
G1 X165.23 Y0.03
G1 X165.30 Y0.00
G1 X321.30 Y0.00
G1 X321.37 Y0.03
G1 X321.37 Y0.03

; Pass 1 Path 1
G0 X310.70 Y2.95
G1 X301.90 Y2.95 S1000.00 F400
G1 X301.90 Y6.05
G1 X310.70 Y6.05
G1 X310.70 Y2.95

; Pass 1 Path 2
G0 X292.70 Y2.95
G1 X283.90 Y2.95 S1000.00 F400
G1 X283.90 Y6.05
G1 X292.70 Y6.05
G1 X292.70 Y2.95

; Pass 1 Path 3
G0 X274.70 Y2.95
G1 X265.90 Y2.95 S1000.00 F400
G1 X265.90 Y6.05
G1 X274.70 Y6.05
G1 X274.70 Y2.95

; Pass 1 Path 4
G0 X256.70 Y2.95
G1 X247.90 Y2.95 S1000.00 F400
G1 X247.90 Y6.05
G1 X256.70 Y6.05
G1 X256.70 Y2.95

; Pass 1 Path 5
G0 X238.70 Y2.95
G1 X229.90 Y2.95 S1000.00 F400
G1 X229.90 Y6.05
G1 X238.70 Y6.05
G1 X238.70 Y2.95

; Pass 1 Path 6
G0 X220.70 Y2.95
G1 X211.90 Y2.95 S1000.00 F400
G1 X211.90 Y6.05
G1 X220.70 Y6.05
G1 X220.70 Y2.95

; Pass 1 Path 7
G0 X202.70 Y2.95
G1 X193.90 Y2.95 S1000.00 F400
G1 X193.90 Y6.05
G1 X202.70 Y6.05
G1 X202.70 Y2.95

; Pass 1 Path 8
G0 X184.70 Y2.95
G1 X175.90 Y2.95 S1000.00 F400
G1 X175.90 Y6.05
G1 X184.70 Y6.05
G1 X184.70 Y2.95

; Pass 1 Path 9
G0 X162.20 Y9.40
G1 X162.20 Y18.40 S1000.00 F400
G1 X162.17 Y18.47
G1 X162.10 Y18.50
G1 X159.20 Y18.50
G1 X159.20 Y27.30
G1 X162.10 Y27.30
G1 X162.17 Y27.33
G1 X162.20 Y27.40
G1 X162.20 Y36.40
G1 X162.17 Y36.47
G1 X162.10 Y36.50
G1 X159.20 Y36.50
G1 X159.20 Y45.30
G1 X162.10 Y45.30
G1 X162.17 Y45.33
G1 X162.20 Y45.40
G1 X162.20 Y54.40
G1 X162.17 Y54.47
G1 X162.10 Y54.50
G1 X159.20 Y54.50
G1 X159.20 Y63.80
G1 X159.17 Y63.87
G1 X159.10 Y63.90
G1 X159.17 Y63.93
G1 X159.20 Y64.00
G1 X159.20 Y73.20
G1 X162.10 Y73.20
G1 X162.17 Y73.23
G1 X162.20 Y73.30
G1 X162.20 Y82.30
G1 X162.17 Y82.37
G1 X162.10 Y82.40
G1 X159.20 Y82.40
G1 X159.20 Y91.20
G1 X162.10 Y91.20
G1 X162.17 Y91.23
G1 X162.20 Y91.30
G1 X162.20 Y100.30
G1 X162.17 Y100.37
G1 X162.10 Y100.40
G1 X159.20 Y100.40
G1 X159.20 Y109.20
G1 X162.10 Y109.20
G1 X162.17 Y109.23
G1 X162.20 Y109.30
G1 X162.20 Y118.30
G1 X162.17 Y118.37
G1 X162.10 Y118.40
G1 X159.20 Y118.40
G1 X159.20 Y127.70
G1 X159.17 Y127.77
G1 X159.10 Y127.80
G1 X159.17 Y127.83
G1 X159.20 Y127.90
G1 X159.20 Y137.10
G1 X162.10 Y137.10
G1 X162.17 Y137.13
G1 X162.20 Y137.20
G1 X162.20 Y146.20
G1 X162.17 Y146.27
G1 X162.10 Y146.30
G1 X159.20 Y146.30
G1 X159.20 Y155.10
G1 X162.10 Y155.10
G1 X162.17 Y155.13
G1 X162.20 Y155.20
G1 X162.20 Y164.20
G1 X162.17 Y164.27
G1 X162.10 Y164.30
G1 X159.20 Y164.30
G1 X159.20 Y173.10
G1 X162.10 Y173.10
G1 X162.17 Y173.13
G1 X162.20 Y173.20
G1 X162.20 Y182.20
G1 X162.17 Y182.27
G1 X162.10 Y182.30
G1 X159.20 Y182.30
G1 X159.20 Y191.60
G1 X159.17 Y191.67
G1 X159.10 Y191.70
G1 X159.17 Y191.73
G1 X159.20 Y191.80
G1 X159.20 Y201.00
G1 X162.10 Y201.00
G1 X162.17 Y201.03
G1 X162.20 Y201.10
G1 X162.20 Y210.10
G1 X162.17 Y210.17
G1 X162.10 Y210.20
G1 X159.20 Y210.20
G1 X159.20 Y219.00
G1 X162.10 Y219.00
G1 X162.17 Y219.03
G1 X162.20 Y219.10
G1 X162.20 Y228.10
G1 X162.17 Y228.17
G1 X162.10 Y228.20
G1 X159.20 Y228.20
G1 X159.20 Y237.00
G1 X162.10 Y237.00
G1 X162.17 Y237.03
G1 X162.20 Y237.10
G1 X162.20 Y246.10
G1 X162.17 Y246.17
G1 X162.10 Y246.20
G1 X159.20 Y246.20
G1 X159.20 Y255.50
G1 X159.17 Y255.57
G1 X159.10 Y255.60
G1 X159.17 Y255.63
G1 X159.20 Y255.70
G1 X159.20 Y264.90
G1 X162.10 Y264.90
G1 X162.17 Y264.93
G1 X162.20 Y265.00
G1 X162.20 Y274.00
G1 X162.17 Y274.07
G1 X162.10 Y274.10
G1 X159.20 Y274.10
G1 X159.20 Y282.90
G1 X162.10 Y282.90
G1 X162.17 Y282.93
G1 X162.20 Y283.00
G1 X162.20 Y292.00
G1 X162.17 Y292.07
G1 X162.10 Y292.10
G1 X159.20 Y292.10
G1 X159.20 Y300.90
G1 X162.10 Y300.90
G1 X162.17 Y300.93
G1 X162.20 Y301.00
G1 X162.20 Y310.00
G1 X162.17 Y310.07
G1 X162.10 Y310.10
G1 X159.20 Y310.10
G1 X159.20 Y319.40
G1 X159.17 Y319.47
G1 X159.10 Y319.50
G1 X159.17 Y319.53
G1 X159.20 Y319.60
G1 X159.20 Y328.80
G1 X162.10 Y328.80
G1 X162.17 Y328.83
G1 X162.20 Y328.90
G1 X162.20 Y337.90
G1 X162.17 Y337.97
G1 X162.10 Y338.00
G1 X159.20 Y338.00
G1 X159.20 Y346.80
G1 X162.10 Y346.80
G1 X162.17 Y346.83
G1 X162.20 Y346.90
G1 X162.20 Y355.90
G1 X162.17 Y355.97
G1 X162.10 Y356.00
G1 X159.20 Y356.00
G1 X159.20 Y364.80
G1 X162.10 Y364.80
G1 X162.17 Y364.83
G1 X162.20 Y364.90
G1 X162.20 Y373.90
G1 X162.17 Y373.97
G1 X162.10 Y374.00
G1 X159.20 Y374.00
G1 X159.20 Y383.30
G1 X159.17 Y383.37
G1 X159.10 Y383.40
G1 X91.10 Y383.40
G1 X91.10 Y375.40
G1 X71.10 Y375.40
G1 X71.10 Y383.40
G1 X3.10 Y383.40
G1 X3.03 Y383.37
G1 X3.00 Y383.30
G1 X3.00 Y374.00
G1 X0.10 Y374.00
G1 X0.03 Y373.97
G1 X0.00 Y373.90
G1 X0.00 Y364.90
G1 X0.03 Y364.83
G1 X0.10 Y364.80
G1 X3.00 Y364.80
G1 X3.00 Y356.00
G1 X0.10 Y356.00
G1 X0.03 Y355.97
G1 X0.00 Y355.90
G1 X0.00 Y346.90
G1 X0.03 Y346.83
G1 X0.10 Y346.80
G1 X3.00 Y346.80
G1 X3.00 Y338.00
G1 X0.10 Y338.00
G1 X0.03 Y337.97
G1 X0.00 Y337.90
G1 X0.00 Y328.90
G1 X0.03 Y328.83
G1 X0.10 Y328.80
G1 X3.00 Y328.80
G1 X3.00 Y319.60
G1 X3.03 Y319.53
G1 X3.10 Y319.50
G1 X3.03 Y319.47
G1 X3.00 Y319.40
G1 X3.00 Y310.10
G1 X0.10 Y310.10
G1 X0.03 Y310.07
G1 X0.00 Y310.00
G1 X0.00 Y301.00
G1 X0.03 Y300.93
G1 X0.10 Y300.90
G1 X3.00 Y300.90
G1 X3.00 Y292.10
G1 X0.10 Y292.10
G1 X0.03 Y292.07
G1 X0.00 Y292.00
G1 X0.00 Y283.00
G1 X0.03 Y282.93
G1 X0.10 Y282.90
G1 X3.00 Y282.90
G1 X3.00 Y274.10
G1 X0.10 Y274.10
G1 X0.03 Y274.07
G1 X0.00 Y274.00
G1 X0.00 Y265.00
G1 X0.03 Y264.93
G1 X0.10 Y264.90
G1 X3.00 Y264.90
G1 X3.00 Y255.70
G1 X3.03 Y255.63
G1 X3.10 Y255.60
G1 X3.03 Y255.57
G1 X3.00 Y255.50
G1 X3.00 Y246.20
G1 X0.10 Y246.20
G1 X0.03 Y246.17
G1 X0.00 Y246.10
G1 X0.00 Y237.10
G1 X0.03 Y237.03
G1 X0.10 Y237.00
G1 X3.00 Y237.00
G1 X3.00 Y228.20
G1 X0.10 Y228.20
G1 X0.03 Y228.17
G1 X0.00 Y228.10
G1 X0.00 Y219.10
G1 X0.03 Y219.03
G1 X0.10 Y219.00
G1 X3.00 Y219.00
G1 X3.00 Y210.20
G1 X0.10 Y210.20
G1 X0.03 Y210.17
G1 X0.00 Y210.10
G1 X0.00 Y201.10
G1 X0.03 Y201.03
G1 X0.10 Y201.00
G1 X3.00 Y201.00
G1 X3.00 Y191.80
G1 X3.03 Y191.73
G1 X3.10 Y191.70
G1 X3.03 Y191.67
G1 X3.00 Y191.60
G1 X3.00 Y182.30
G1 X0.10 Y182.30
G1 X0.03 Y182.27
G1 X0.00 Y182.20
G1 X0.00 Y173.20
G1 X0.03 Y173.13
G1 X0.10 Y173.10
G1 X3.00 Y173.10
G1 X3.00 Y164.30
G1 X0.10 Y164.30
G1 X0.03 Y164.27
G1 X0.00 Y164.20
G1 X0.00 Y155.20
G1 X0.03 Y155.13
G1 X0.10 Y155.10
G1 X3.00 Y155.10
G1 X3.00 Y146.30
G1 X0.10 Y146.30
G1 X0.03 Y146.27
G1 X0.00 Y146.20
G1 X0.00 Y137.20
G1 X0.03 Y137.13
G1 X0.10 Y137.10
G1 X3.00 Y137.10
G1 X3.00 Y127.90
G1 X3.03 Y127.83
G1 X3.10 Y127.80
G1 X3.03 Y127.77
G1 X3.00 Y127.70
G1 X3.00 Y118.40
G1 X0.10 Y118.40
G1 X0.03 Y118.37
G1 X0.00 Y118.30
G1 X0.00 Y109.30
G1 X0.03 Y109.23
G1 X0.10 Y109.20
G1 X3.00 Y109.20
G1 X3.00 Y100.40
G1 X0.10 Y100.40
G1 X0.03 Y100.37
G1 X0.00 Y100.30
G1 X0.00 Y91.30
G1 X0.03 Y91.23
G1 X0.10 Y91.20
G1 X3.00 Y91.20
G1 X3.00 Y82.40
G1 X0.10 Y82.40
G1 X0.03 Y82.37
G1 X0.00 Y82.30
G1 X0.00 Y73.30
G1 X0.03 Y73.23
G1 X0.10 Y73.20
G1 X3.00 Y73.20
G1 X3.00 Y64.00
G1 X3.03 Y63.93
G1 X3.10 Y63.90
G1 X3.03 Y63.87
G1 X3.00 Y63.80
G1 X3.00 Y54.50
G1 X0.10 Y54.50
G1 X0.03 Y54.47
G1 X0.00 Y54.40
G1 X0.00 Y45.40
G1 X0.03 Y45.33
G1 X0.10 Y45.30
G1 X3.00 Y45.30
G1 X3.00 Y36.50
G1 X0.10 Y36.50
G1 X0.03 Y36.47
G1 X0.00 Y36.40
G1 X0.00 Y27.40
G1 X0.03 Y27.33
G1 X0.10 Y27.30
G1 X3.00 Y27.30
G1 X3.00 Y18.50
G1 X0.10 Y18.50
G1 X0.03 Y18.47
G1 X0.00 Y18.40
G1 X0.00 Y9.40
G1 X0.03 Y9.33
G1 X0.10 Y9.30
G1 X3.00 Y9.30
G1 X3.00 Y0.10
G1 X3.03 Y0.03
G1 X3.10 Y0.00
G1 X159.10 Y0.00
G1 X159.17 Y0.03
G1 X159.20 Y0.10
G1 X159.20 Y9.30
G1 X162.10 Y9.30
G1 X162.17 Y9.33
G1 X162.20 Y9.40

; Pass 1 Path 10
G0 X148.50 Y6.05
G1 X148.50 Y2.95 S1000.00 F400
G1 X139.70 Y2.95
G1 X139.70 Y6.05
G1 X148.50 Y6.05

; Pass 1 Path 11
G0 X130.50 Y6.05
G1 X130.50 Y2.95 S1000.00 F400
G1 X121.70 Y2.95
G1 X121.70 Y6.05
G1 X130.50 Y6.05

; Pass 1 Path 12
G0 X112.50 Y6.05
G1 X112.50 Y2.95 S1000.00 F400
G1 X103.70 Y2.95
G1 X103.70 Y6.05
G1 X112.50 Y6.05

; Pass 1 Path 13
G0 X94.50 Y6.05
G1 X94.50 Y2.95 S1000.00 F400
G1 X85.70 Y2.95
G1 X85.70 Y6.05
G1 X94.50 Y6.05

; Pass 1 Path 14
G0 X76.50 Y6.05
G1 X76.50 Y2.95 S1000.00 F400
G1 X67.70 Y2.95
G1 X67.70 Y6.05
G1 X76.50 Y6.05

; Pass 1 Path 15
G0 X58.50 Y6.05
G1 X58.50 Y2.95 S1000.00 F400
G1 X49.70 Y2.95
G1 X49.70 Y6.05
G1 X58.50 Y6.05

; Pass 1 Path 16
G0 X40.50 Y6.05
G1 X40.50 Y2.95 S1000.00 F400
G1 X31.70 Y2.95
G1 X31.70 Y6.05
G1 X40.50 Y6.05

; Pass 1 Path 17
G0 X22.50 Y6.05
G1 X22.50 Y2.95 S1000.00 F400
G1 X13.70 Y2.95
G1 X13.70 Y6.05
G1 X22.50 Y6.05

; Pass 1 Path 18
G0 X22.50 Y66.85
G1 X13.70 Y66.85 S1000.00 F400
G1 X13.70 Y69.95
G1 X22.50 Y69.95
G1 X22.50 Y66.85

; Pass 1 Path 19
G0 X31.70 Y66.85
G1 X31.70 Y69.95 S1000.00 F400
G1 X40.50 Y69.95
G1 X40.50 Y66.85
G1 X31.70 Y66.85
G1 X31.70 Y66.85

; Pass 1 Path 20
G0 X49.70 Y66.85
G1 X49.70 Y69.95 S1000.00 F400
G1 X58.50 Y69.95
G1 X58.50 Y66.85
G1 X49.70 Y66.85
G1 X49.70 Y66.85

; Pass 1 Path 21
G0 X67.70 Y66.85
G1 X67.70 Y69.95 S1000.00 F400
G1 X76.50 Y69.95
G1 X76.50 Y66.85
G1 X67.70 Y66.85
G1 X67.70 Y66.85

; Pass 1 Path 22
G0 X71.10 Y63.90
G1 X71.10 Y63.90 S1000.00 F400
G1 X91.10 Y63.90
G1 X91.10 Y55.90
G1 X71.10 Y55.90
G1 X71.10 Y63.90
G1 X3.10 Y63.90
G1 X3.10 Y63.90
G1 X3.10 Y63.90
G1 X71.10 Y63.90

; Pass 1 Path 23
G0 X71.10 Y55.90
G1 X91.10 Y55.90 S1000.00 F400
G1 X91.10 Y55.82
G1 X91.10 Y55.73
G1 X91.10 Y55.65
G1 X91.09 Y55.57
G1 X91.09 Y55.48
G1 X91.09 Y55.40
G1 X91.08 Y55.32
G1 X91.08 Y55.23
G1 X91.07 Y55.15
G1 X91.07 Y55.07
G1 X91.06 Y54.99
G1 X91.05 Y54.90
G1 X91.04 Y54.82
G1 X91.03 Y54.74
G1 X91.02 Y54.66
G1 X91.01 Y54.58
G1 X91.00 Y54.49
G1 X90.99 Y54.41
G1 X90.98 Y54.33
G1 X90.96 Y54.25
G1 X90.95 Y54.17
G1 X90.93 Y54.09
G1 X90.92 Y54.01
G1 X90.90 Y53.93
G1 X90.89 Y53.85
G1 X90.87 Y53.77
G1 X90.85 Y53.69
G1 X90.83 Y53.61
G1 X90.81 Y53.53
G1 X90.79 Y53.45
G1 X90.77 Y53.37
G1 X90.75 Y53.29
G1 X90.73 Y53.21
G1 X90.71 Y53.13
G1 X90.69 Y53.06
G1 X90.66 Y52.98
G1 X90.64 Y52.90
G1 X90.61 Y52.82
G1 X90.59 Y52.75
G1 X90.56 Y52.67
G1 X90.54 Y52.59
G1 X90.51 Y52.51
G1 X90.48 Y52.44
G1 X90.45 Y52.36
G1 X90.42 Y52.29
G1 X90.39 Y52.21
G1 X90.36 Y52.14
G1 X90.33 Y52.06
G1 X90.30 Y51.99
G1 X90.27 Y51.91
G1 X90.24 Y51.84
G1 X90.20 Y51.76
G1 X90.17 Y51.69
G1 X90.14 Y51.62
G1 X90.10 Y51.54
G1 X90.07 Y51.47
G1 X90.03 Y51.40
G1 X89.99 Y51.33
G1 X89.96 Y51.25
G1 X89.92 Y51.18
G1 X89.88 Y51.11
G1 X89.84 Y51.04
G1 X89.80 Y50.97
G1 X89.76 Y50.90
G1 X89.72 Y50.83
G1 X89.68 Y50.76
G1 X89.64 Y50.69
G1 X89.59 Y50.62
G1 X89.55 Y50.55
G1 X89.51 Y50.49
G1 X89.46 Y50.42
G1 X89.42 Y50.35
G1 X89.37 Y50.28
G1 X89.33 Y50.22
G1 X89.28 Y50.15
G1 X89.23 Y50.08
G1 X89.19 Y50.02
G1 X89.14 Y49.95
G1 X89.09 Y49.89
G1 X89.04 Y49.82
G1 X88.99 Y49.76
G1 X88.94 Y49.70
G1 X88.89 Y49.63
G1 X88.84 Y49.57
G1 X88.79 Y49.51
G1 X88.74 Y49.44
G1 X88.68 Y49.38
G1 X88.63 Y49.32
G1 X88.58 Y49.26
G1 X88.52 Y49.20
G1 X88.47 Y49.14
G1 X88.41 Y49.08
G1 X88.36 Y49.02
G1 X88.30 Y48.96
G1 X88.24 Y48.90
G1 X88.19 Y48.84
G1 X88.13 Y48.79
G1 X88.07 Y48.73
G1 X88.01 Y48.67
G1 X87.95 Y48.62
G1 X87.89 Y48.56
G1 X87.83 Y48.51
G1 X87.77 Y48.45
G1 X87.71 Y48.40
G1 X87.65 Y48.34
G1 X87.59 Y48.29
G1 X87.52 Y48.24
G1 X87.46 Y48.18
G1 X87.40 Y48.13
G1 X87.33 Y48.08
G1 X87.27 Y48.03
G1 X87.20 Y47.98
G1 X87.14 Y47.93
G1 X87.07 Y47.88
G1 X87.00 Y47.83
G1 X86.94 Y47.78
G1 X86.87 Y47.73
G1 X86.80 Y47.69
G1 X86.73 Y47.64
G1 X86.67 Y47.59
G1 X86.60 Y47.55
G1 X86.53 Y47.50
G1 X86.46 Y47.46
G1 X86.39 Y47.41
G1 X86.32 Y47.37
G1 X86.24 Y47.32
G1 X86.17 Y47.28
G1 X86.10 Y47.24
G1 X86.03 Y47.20
G1 X85.95 Y47.16
G1 X85.88 Y47.12
G1 X85.81 Y47.08
G1 X85.73 Y47.04
G1 X85.66 Y47.00
G1 X85.59 Y46.96
G1 X85.51 Y46.93
G1 X85.44 Y46.89
G1 X85.36 Y46.85
G1 X85.29 Y46.82
G1 X85.21 Y46.78
G1 X85.14 Y46.75
G1 X85.06 Y46.72
G1 X84.98 Y46.69
G1 X84.91 Y46.65
G1 X84.83 Y46.62
G1 X84.76 Y46.59
G1 X84.68 Y46.56
G1 X84.60 Y46.53
G1 X84.53 Y46.51
G1 X84.45 Y46.48
G1 X84.37 Y46.45
G1 X84.29 Y46.42
G1 X84.22 Y46.40
G1 X84.14 Y46.37
G1 X84.06 Y46.35
G1 X83.98 Y46.32
G1 X83.90 Y46.30
G1 X83.82 Y46.28
G1 X83.75 Y46.26
G1 X83.67 Y46.24
G1 X83.59 Y46.21
G1 X83.51 Y46.19
G1 X83.43 Y46.18
G1 X83.35 Y46.16
G1 X83.27 Y46.14
G1 X83.19 Y46.12
G1 X83.11 Y46.10
G1 X83.03 Y46.09
G1 X82.95 Y46.07
G1 X82.87 Y46.06
G1 X82.79 Y46.04
G1 X82.71 Y46.03
G1 X82.63 Y46.02
G1 X82.55 Y46.01
G1 X82.47 Y45.99
G1 X82.39 Y45.98
G1 X82.31 Y45.97
G1 X82.23 Y45.96
G1 X82.15 Y45.96
G1 X82.07 Y45.95
G1 X81.99 Y45.94
G1 X81.91 Y45.93
G1 X81.83 Y45.93
G1 X81.75 Y45.92
G1 X81.67 Y45.92
G1 X81.59 Y45.91
G1 X81.50 Y45.91
G1 X81.42 Y45.91
G1 X81.34 Y45.90
G1 X81.26 Y45.90
G1 X81.18 Y45.90
G1 X81.10 Y45.90
G1 X81.02 Y45.90
G1 X80.94 Y45.90
G1 X80.86 Y45.90
G1 X80.78 Y45.91
G1 X80.70 Y45.91
G1 X80.61 Y45.91
G1 X80.53 Y45.92
G1 X80.45 Y45.92
G1 X80.37 Y45.93
G1 X80.29 Y45.93
G1 X80.21 Y45.94
G1 X80.13 Y45.95
G1 X80.05 Y45.96
G1 X79.97 Y45.96
G1 X79.89 Y45.97
G1 X79.81 Y45.98
G1 X79.73 Y45.99
G1 X79.65 Y46.01
G1 X79.57 Y46.02
G1 X79.49 Y46.03
G1 X79.41 Y46.04
G1 X79.33 Y46.06
G1 X79.25 Y46.07
G1 X79.17 Y46.09
G1 X79.09 Y46.10
G1 X79.01 Y46.12
G1 X78.93 Y46.14
G1 X78.85 Y46.16
G1 X78.77 Y46.18
G1 X78.69 Y46.19
G1 X78.61 Y46.21
G1 X78.53 Y46.24
G1 X78.45 Y46.26
G1 X78.38 Y46.28
G1 X78.30 Y46.30
G1 X78.22 Y46.32
G1 X78.14 Y46.35
G1 X78.06 Y46.37
G1 X77.98 Y46.40
G1 X77.91 Y46.42
G1 X77.83 Y46.45
G1 X77.75 Y46.48
G1 X77.67 Y46.51
G1 X77.60 Y46.53
G1 X77.52 Y46.56
G1 X77.44 Y46.59
G1 X77.37 Y46.62
G1 X77.29 Y46.65
G1 X77.21 Y46.69
G1 X77.14 Y46.72
G1 X77.06 Y46.75
G1 X76.99 Y46.78
G1 X76.91 Y46.82
G1 X76.84 Y46.85
G1 X76.76 Y46.89
G1 X76.69 Y46.93
G1 X76.61 Y46.96
G1 X76.54 Y47.00
G1 X76.47 Y47.04
G1 X76.39 Y47.08
G1 X76.32 Y47.12
G1 X76.25 Y47.16
G1 X76.17 Y47.20
G1 X76.10 Y47.24
G1 X76.03 Y47.28
G1 X75.96 Y47.32
G1 X75.88 Y47.37
G1 X75.81 Y47.41
G1 X75.74 Y47.46
G1 X75.67 Y47.50
G1 X75.60 Y47.55
G1 X75.53 Y47.59
G1 X75.47 Y47.64
G1 X75.40 Y47.69
G1 X75.33 Y47.73
G1 X75.26 Y47.78
G1 X75.19 Y47.83
G1 X75.13 Y47.88
G1 X75.06 Y47.93
G1 X75.00 Y47.98
G1 X74.93 Y48.03
G1 X74.87 Y48.08
G1 X74.80 Y48.13
G1 X74.74 Y48.18
G1 X74.68 Y48.24
G1 X74.61 Y48.29
G1 X74.55 Y48.34
G1 X74.49 Y48.40
G1 X74.43 Y48.45
G1 X74.37 Y48.51
G1 X74.31 Y48.56
G1 X74.25 Y48.62
G1 X74.19 Y48.67
G1 X74.13 Y48.73
G1 X74.07 Y48.79
G1 X74.01 Y48.84
G1 X73.96 Y48.90
G1 X73.90 Y48.96
G1 X73.84 Y49.02
G1 X73.79 Y49.08
G1 X73.73 Y49.14
G1 X73.68 Y49.20
G1 X73.62 Y49.26
G1 X73.57 Y49.32
G1 X73.52 Y49.38
G1 X73.46 Y49.44
G1 X73.41 Y49.51
G1 X73.36 Y49.57
G1 X73.31 Y49.63
G1 X73.26 Y49.70
G1 X73.21 Y49.76
G1 X73.16 Y49.82
G1 X73.11 Y49.89
G1 X73.06 Y49.95
G1 X73.01 Y50.02
G1 X72.97 Y50.08
G1 X72.92 Y50.15
G1 X72.87 Y50.22
G1 X72.83 Y50.28
G1 X72.78 Y50.35
G1 X72.74 Y50.42
G1 X72.69 Y50.49
G1 X72.65 Y50.55
G1 X72.61 Y50.62
G1 X72.56 Y50.69
G1 X72.52 Y50.76
G1 X72.48 Y50.83
G1 X72.44 Y50.90
G1 X72.40 Y50.97
G1 X72.36 Y51.04
G1 X72.32 Y51.11
G1 X72.28 Y51.18
G1 X72.24 Y51.25
G1 X72.21 Y51.33
G1 X72.17 Y51.40
G1 X72.13 Y51.47
G1 X72.10 Y51.54
G1 X72.06 Y51.62
G1 X72.03 Y51.69
G1 X72.00 Y51.76
G1 X71.96 Y51.84
G1 X71.93 Y51.91
G1 X71.90 Y51.99
G1 X71.87 Y52.06
G1 X71.84 Y52.14
G1 X71.81 Y52.21
G1 X71.78 Y52.29
G1 X71.75 Y52.36
G1 X71.72 Y52.44
G1 X71.69 Y52.51
G1 X71.66 Y52.59
G1 X71.64 Y52.67
G1 X71.61 Y52.75
G1 X71.59 Y52.82
G1 X71.56 Y52.90
G1 X71.54 Y52.98
G1 X71.51 Y53.06
G1 X71.49 Y53.13
G1 X71.47 Y53.21
G1 X71.45 Y53.29
G1 X71.43 Y53.37
G1 X71.40 Y53.45
G1 X71.39 Y53.53
G1 X71.37 Y53.61
G1 X71.35 Y53.69
G1 X71.33 Y53.77
G1 X71.31 Y53.85
G1 X71.30 Y53.93
G1 X71.28 Y54.01
G1 X71.27 Y54.09
G1 X71.25 Y54.17
G1 X71.24 Y54.25
G1 X71.22 Y54.33
G1 X71.21 Y54.41
G1 X71.20 Y54.49
G1 X71.19 Y54.58
G1 X71.18 Y54.66
G1 X71.17 Y54.74
G1 X71.16 Y54.82
G1 X71.15 Y54.90
G1 X71.14 Y54.99
G1 X71.13 Y55.07
G1 X71.13 Y55.15
G1 X71.12 Y55.23
G1 X71.12 Y55.32
G1 X71.11 Y55.40
G1 X71.11 Y55.48
G1 X71.11 Y55.57
G1 X71.10 Y55.65
G1 X71.10 Y55.73
G1 X71.10 Y55.82
G1 X71.10 Y55.90

; Pass 1 Path 24
G0 X85.70 Y66.85
G1 X85.70 Y69.95 S1000.00 F400
G1 X94.50 Y69.95
G1 X94.50 Y66.85
G1 X85.70 Y66.85
G1 X85.70 Y66.85

; Pass 1 Path 25
G0 X91.10 Y63.90
G1 X159.10 Y63.90 S1000.00 F400
G1 X159.10 Y63.90
G1 X159.10 Y63.90
G1 X91.10 Y63.90
G1 X91.10 Y63.90

; Pass 1 Path 26
G0 X103.70 Y66.85
G1 X103.70 Y69.95 S1000.00 F400
G1 X112.50 Y69.95
G1 X112.50 Y66.85
G1 X103.70 Y66.85
G1 X103.70 Y66.85

; Pass 1 Path 27
G0 X121.70 Y66.85
G1 X121.70 Y69.95 S1000.00 F400
G1 X130.50 Y69.95
G1 X130.50 Y66.85
G1 X121.70 Y66.85
G1 X121.70 Y66.85

; Pass 1 Path 28
G0 X139.70 Y66.85
G1 X139.70 Y69.95 S1000.00 F400
G1 X148.50 Y69.95
G1 X148.50 Y66.85
G1 X139.70 Y66.85
G1 X139.70 Y66.85

; Pass 1 Path 29
G0 X165.30 Y63.90
G1 X165.30 Y63.90 S1000.00 F400
G1 X321.30 Y63.90
G1 X321.30 Y63.90
G1 X321.30 Y63.90
G1 X165.30 Y63.90
G1 X165.30 Y63.90

; Pass 1 Path 30
G0 X175.90 Y66.85
G1 X175.90 Y69.95 S1000.00 F400
G1 X184.70 Y69.95
G1 X184.70 Y66.85
G1 X175.90 Y66.85
G1 X175.90 Y66.85

; Pass 1 Path 31
G0 X193.90 Y66.85
G1 X193.90 Y69.95 S1000.00 F400
G1 X202.70 Y69.95
G1 X202.70 Y66.85
G1 X193.90 Y66.85
G1 X193.90 Y66.85

; Pass 1 Path 32
G0 X211.90 Y66.85
G1 X211.90 Y69.95 S1000.00 F400
G1 X220.70 Y69.95
G1 X220.70 Y66.85
G1 X211.90 Y66.85
G1 X211.90 Y66.85

; Pass 1 Path 33
G0 X229.90 Y66.85
G1 X229.90 Y69.95 S1000.00 F400
G1 X238.70 Y69.95
G1 X238.70 Y66.85
G1 X229.90 Y66.85
G1 X229.90 Y66.85

; Pass 1 Path 34
G0 X247.90 Y66.85
G1 X247.90 Y69.95 S1000.00 F400
G1 X256.70 Y69.95
G1 X256.70 Y66.85
G1 X247.90 Y66.85
G1 X247.90 Y66.85

; Pass 1 Path 35
G0 X265.90 Y66.85
G1 X265.90 Y69.95 S1000.00 F400
G1 X274.70 Y69.95
G1 X274.70 Y66.85
G1 X265.90 Y66.85
G1 X265.90 Y66.85

; Pass 1 Path 36
G0 X283.90 Y66.85
G1 X283.90 Y69.95 S1000.00 F400
G1 X292.70 Y69.95
G1 X292.70 Y66.85
G1 X283.90 Y66.85
G1 X283.90 Y66.85

; Pass 1 Path 37
G0 X301.90 Y66.85
G1 X301.90 Y69.95 S1000.00 F400
G1 X310.70 Y69.95
G1 X310.70 Y66.85
G1 X301.90 Y66.85
G1 X301.90 Y66.85

; Pass 1 Path 38
G0 X301.90 Y130.75
G1 X301.90 Y133.85 S1000.00 F400
G1 X310.70 Y133.85
G1 X310.70 Y130.75
G1 X301.90 Y130.75
G1 X301.90 Y130.75

; Pass 1 Path 39
G0 X292.70 Y130.75
G1 X283.90 Y130.75 S1000.00 F400
G1 X283.90 Y133.85
G1 X292.70 Y133.85
G1 X292.70 Y130.75

; Pass 1 Path 40
G0 X274.70 Y130.75
G1 X265.90 Y130.75 S1000.00 F400
G1 X265.90 Y133.85
